!!!!SEGMENT: pl-cz--iii-325--001_engel-jan--sinfonia-in-d-allegro-assai.krn
!!!cenid: 17xx:888
!!!COM: Engel, Jan
!!!COM-rismID: pe30009138
!!!CDT: <1772->1788
!!!CNT:
!!!OPR: Sinfonia in D
!!!OTL: Allegro assai
!!!OMV: 001
!!!PDT:
!!!AGN: Secular
!!!SMS-siglum: PL-CZ
!!!SMS-shelfmark: III-325
!!!SMS-shelfwork: 001-001 M
!!!SMS-variant:
!!!SMS-altvar:
!!!NIFC-rismSourceID: 300000295
!!!NIFC-rismChildID: 300000295
!!!NIFC-islandoraID: pl-cz:37632
!!!URL-pdf-islandora: https://repozytorium.nifc.pl/islandora/object/pl-cz%3A37632/datastream/PDF/view
!!!URL-scan:
!!!ONB-nifc: UWAGA: części Sinfonii: Allegro assai, Andante, Presto. Uwaga; brak partii ob i cor
!!!AIN: 1 cor 1 organ 1 viola 2 violn
!!!key: D
**kern	**fba	**dynam	**kern	**dynam	**kern	**dynam	**kern	**dynam	**kern	**kern	**kern	**kern
*	*	*	*group3	*group3	*group3	*group3	*group3	*group3	*group2	*group2	*group1	*group1
*	*	*	*	*	*	*	*	*	*I""	*I""Corni Due	*I""Oboe Due	*I""Oboe Due
*part8	*	*part8	*part7	*part7	*part6	*part6	*part5	*part5	*part4	*part3	*part2	*part1
*staff8	*	*	*staff7	*	*staff6	*	*staff5	*	*staff4	*staff3	*staff2	*staff1
*IGcont	*	*	*	*	*	*	*	*	*	*	*	*
*ICklav	*	*	*ICstr	*	*ICstr	*	*ICstr	*	*ICbras	*ICbras	*ICww	*ICww
*Iorgan	*	*	*Iviola	*	*Ivioln	*	*Ivioln	*	*Icor	*	*	*
*I"Baſso	*	*	*I"Alto Viola	*	*I"Violino Secundo.	*	*I"Violino Primo.	*	*	*	*	*
*I'bc	*	*	*I'a-vla	*	*I'vl 2	*	*I'vl 1	*	*	*	*	*
*clefF4	*	*	*clefC3	*	*clefG2	*	*clefG2	*	*	*	*	*
*k[f#c#]	*	*	*k[f#c#]	*	*k[f#c#]	*	*k[f#c#]	*	*	*	*	*
*D:	*	*	*D:	*	*D:	*	*D:	*	*	*	*	*
*M4/4	*	*	*M4/4	*	*M4/4	*	*M4/4	*	*	*	*	*
*met(c)	*	*	*met(c)	*	*met(c)	*	*met(c)	*	*	*	*	*
*2\right	*	*	*2\right	*	*2\right	*	*2\right	*	*	*	*	*
=1	=1	=1	=1	=1	=1	=1	=1	=1	=1	=1	=1	=1
!LO:TX:a:t=Allegro aſsai:rj	!	!LO:DY:rj	!LO:TX:a:t=Allegro aſsai:rj	!LO:DY:rj	!LO:TX:a:t=Allegro aſsai:rj	!LO:DY:rj:t=f&colon;	!LO:TX:a:t=Allegro aſsai:rj	!LO:DY:rj	!	!	!	!
8D\L	.	f	8d\L	f	16A/LL	f	2d|/	f	1ryy	1ryy	1ryy	1ryy
.	.	.	.	.	16f#/	.	.	.	.	.	.	.
8D\	.	.	8d\	.	16A/	.	.	.	.	.	.	.
.	.	.	.	.	16f#/JJ	.	.	.	.	.	.	.
*	*	*	*	*	*tremolo	*	*	*	*	*	*	*
8D\	.	.	8d\	.	16A/LL	.	.	.	.	.	.	.
.	.	.	.	.	16f#/	.	.	.	.	.	.	.
8D\J	.	.	8d\J	.	16A/	.	.	.	.	.	.	.
.	.	.	.	.	16f#/	.	.	.	.	.	.	.
*tremolo	*	*	*	*	*	*	*	*	*	*	*	*
*	*	*	*tremolo	*	*	*	*	*	*	*	*	*
8D\L	.	.	8d\L	.	16A/	.	4f#|/	.	.	.	.	.
.	.	.	.	.	16f#/	.	.	.	.	.	.	.
8D\	.	.	8d\	.	16A/	.	.	.	.	.	.	.
.	.	.	.	.	16f#/	.	.	.	.	.	.	.
8D\	.	.	8d\	.	16A/	.	4a|/	.	.	.	.	.
.	.	.	.	.	16f#/	.	.	.	.	.	.	.
8D\J	.	.	8d\J	.	16A/	.	.	.	.	.	.	.
.	.	.	.	.	16f#/JJ	.	.	.	.	.	.	.
=2	=2	=2	=2	=2	=2	=2	=2	=2	=2	=2	=2	=2
8DL\	.	.	8dL\	.	16A/LL	.	[4dd\	.	1ryy	1ryy	1ryy	1ryy
.	.	.	.	.	16f#/	.	.	.	.	.	.	.
8D\	.	.	8d\	.	16A/	.	.	.	.	.	.	.
.	.	.	.	.	16f#/	.	.	.	.	.	.	.
8D\	.	.	8d\	.	16A/	.	16dd\LL]	.	.	.	.	.
.	.	.	.	.	16f#/	.	16ee\	.	.	.	.	.
8D\	.	.	8d\	.	16A/	.	16ff#\	.	.	.	.	.
.	.	.	.	.	16f#/	.	16ee\JJ	.	.	.	.	.
8D\	.	.	8d\	.	16A/	.	4dd\	.	.	.	.	.
.	.	.	.	.	16f#/	.	.	.	.	.	.	.
8D\	.	.	8d\	.	16A/	.	.	.	.	.	.	.
.	.	.	.	.	16f#/JJ	.	.	.	.	.	.	.
*	*	*	*	*	*Xtremolo	*	*	*	*	*	*	*
8D\	.	.	8d\	.	16A/LL	.	4r	.	.	.	.	.
.	.	.	.	.	16f#/	.	.	.	.	.	.	.
8DJ\	.	.	8dJ\	.	16A/	.	.	.	.	.	.	.
.	.	.	.	.	16f#/JJ	.	.	.	.	.	.	.
=3	=3	=3	=3	=3	=3	=3	=3	=3	=3	=3	=3	=3
*	*	*	*	*	*tremolo	*	*	*	*	*	*	*
8DL\	.	.	8BL\	.	16B/LL	.	2e|/	.	1ryy	1ryy	1ryy	1ryy
.	.	.	.	.	16g/	.	.	.	.	.	.	.
8D\	.	.	8B\	.	16B/	.	.	.	.	.	.	.
.	.	.	.	.	16g/	.	.	.	.	.	.	.
8D\	.	.	8B\	.	16B/	.	.	.	.	.	.	.
.	.	.	.	.	16g/	.	.	.	.	.	.	.
8D\	.	.	8B\	.	16B/	.	.	.	.	.	.	.
.	.	.	.	.	16g/JJ	.	.	.	.	.	.	.
8D\	.	.	8B\	.	16B/LL	.	4g|/	.	.	.	.	.
.	.	.	.	.	16g/	.	.	.	.	.	.	.
8D\	.	.	8B\	.	16B/	.	.	.	.	.	.	.
.	.	.	.	.	16g/	.	.	.	.	.	.	.
8D\	.	.	8B\	.	16B/	.	4b|/	.	.	.	.	.
.	.	.	.	.	16g/	.	.	.	.	.	.	.
8DJ\	.	.	8BJ\	.	16B/	.	.	.	.	.	.	.
.	.	.	.	.	16g/JJ	.	.	.	.	.	.	.
=4	=4	=4	=4	=4	=4	=4	=4	=4	=4	=4	=4	=4
8DL\	.	.	8BL\	.	16B/LL	.	[4ee\	.	1ryy	1ryy	1ryy	1ryy
.	.	.	.	.	16g/	.	.	.	.	.	.	.
8D\	.	.	8B\	.	16B/	.	.	.	.	.	.	.
.	.	.	.	.	16g/	.	.	.	.	.	.	.
8D\	.	.	8B\	.	16B/	.	16ee\LL]	.	.	.	.	.
.	.	.	.	.	16g/	.	16ff#\	.	.	.	.	.
8D\	.	.	8B\	.	16B/	.	16gg\	.	.	.	.	.
.	.	.	.	.	16g/JJ	.	16ff#\JJ	.	.	.	.	.
8D\	.	.	8B\	.	16B/LL	.	4ee\	.	.	.	.	.
.	.	.	.	.	16g/	.	.	.	.	.	.	.
8D\	.	.	8B\	.	16B/	.	.	.	.	.	.	.
.	.	.	.	.	16g/	.	.	.	.	.	.	.
8D\	.	.	8B\	.	16B/	.	4r	.	.	.	.	.
.	.	.	.	.	16g/	.	.	.	.	.	.	.
8DJ\	.	.	8BJ\	.	16B/	.	.	.	.	.	.	.
.	.	.	.	.	16g/JJ	.	.	.	.	.	.	.
*Xtremolo	*	*	*	*	*Xtremolo	*	*	*	*	*	*	*
=5	=5	=5	=5	=5	=5	=5	=5	=5	=5	=5	=5	=5
!	!	!	!	!	!	!LO:DY:rj	!	!LO:DY:rj	!	!	!	!
2C#/	x 6 5	.	8AL\	.	2A/ 2e	f	2a|\ 2gg	f	1ryy	1ryy	1ryy	1ryy
.	.	.	8A\	.	.	.	.	.	.	.	.	.
.	.	.	8A\	.	.	.	.	.	.	.	.	.
.	.	.	8A\	.	.	.	.	.	.	.	.	.
2r	.	.	8A\	.	8cc#\	p	8ee\	p	.	.	.	.
.	.	.	8A\	.	8r	.	8r	.	.	.	.	.
.	.	.	8A\	.	8b\	.	8dd|\	.	.	.	.	.
.	.	.	8AJ\	.	8r	.	8r	.	.	.	.	.
=6	=6	=6	=6	=6	=6	=6	=6	=6	=6	=6	=6	=6
!LO:TX:t=2	!	!	!	!	!LO:LB:g=original	!	!	!	!	!	!	!
0r	.	.	8AL\	.	8a/|>	.	8cc#|>\	.	1ryy	1ryy	1ryy	1ryy
.	.	.	8A\	.	8r	.	8r	.	.	.	.	.
.	.	.	8A\	.	8g/|>	.	8b|\	.	.	.	.	.
.	.	.	8A\	.	8r	.	8r	.	.	.	.	.
.	.	.	8A\	.	8f#/|>	.	8a|>/	.	.	.	.	.
.	.	.	8A\	.	8r	.	8r	.	.	.	.	.
.	.	.	8A\	.	8e/|>	.	8g|>/	.	.	.	.	.
.	.	.	8AJ\	.	8r	.	8r	.	.	.	.	.
=7	=7	=7	=7	=7	=7	=7	=7	=7	=7	=7	=7	=7
!	!	!	!	!	!	!	!LO:LB:g=original	!	!	!	!	!
.	.	.	8AL\	.	4d/|>	.	4f#|>/	.	1ryy	1ryy	1ryy	1ryy
.	.	.	8A\	.	.	.	.	.	.	.	.	.
.	.	.	8A\	.	4r	.	4r	.	.	.	.	.
.	.	.	8A\	.	.	.	.	.	.	.	.	.
.	.	.	8A\	.	4c#/	.	4e|>/	.	.	.	.	.
.	.	.	8A\	.	.	.	.	.	.	.	.	.
.	.	.	8A\	.	4r	.	4r	.	.	.	.	.
.	.	.	8AJ\	.	.	.	.	.	.	.	.	.
=8	=8	=8	=8	=8	=8	=8	=8	=8	=8	=8	=8	=8
*tremolo	*	*	*	*	*tremolo	*	*	*	*	*	*	*
!	!	!	!	!LO:DY:rj	!	!LO:DY:rj:t=f&colon;	!	!LO:DY:rj	!	!	!	!
8DL\	.	.	8dL\	f	16A/LL	f	2d|>/	f	1ryy	1ryy	1ryy	1ryy
.	.	.	.	.	16f#/	.	.	.	.	.	.	.
8D\	.	.	8d\	.	16A/	.	.	.	.	.	.	.
.	.	.	.	.	16f#/	.	.	.	.	.	.	.
8D\	.	.	8d\	.	16A/	.	.	.	.	.	.	.
.	.	.	.	.	16f#/	.	.	.	.	.	.	.
8D\	.	.	8d\	.	16A/	.	.	.	.	.	.	.
.	.	.	.	.	16f#/JJ	.	.	.	.	.	.	.
8D\	.	.	8d\	.	16A/LL	.	4f#|>/	.	.	.	.	.
.	.	.	.	.	16f#/	.	.	.	.	.	.	.
8D\	.	.	8d\	.	16A/	.	.	.	.	.	.	.
.	.	.	.	.	16f#/	.	.	.	.	.	.	.
8D\	.	.	8d\	.	16A/	.	4a|>/	.	.	.	.	.
.	.	.	.	.	16f#/	.	.	.	.	.	.	.
8DJ\	.	.	8dJ\	.	16A/	.	.	.	.	.	.	.
.	.	.	.	.	16f#/JJ	.	.	.	.	.	.	.
=9	=9	=9	=9	=9	=9	=9	=9	=9	=9	=9	=9	=9
8DL\	.	.	8dL\	.	16A/LL	.	[4dd\	.	1ryy	1ryy	1ryy	1ryy
.	.	.	.	.	16f#/	.	.	.	.	.	.	.
8D\	.	.	8d\	.	16A/	.	.	.	.	.	.	.
.	.	.	.	.	16f#/	.	.	.	.	.	.	.
8D\	.	.	8d\	.	16A/	.	16dd\LL]	.	.	.	.	.
.	.	.	.	.	16f#/	.	16ee\	.	.	.	.	.
8D\	.	.	8d\	.	16A/	.	16ff#\	.	.	.	.	.
.	.	.	.	.	16f#/JJ	.	16ee\JJ	.	.	.	.	.
8D\	.	.	8d\	.	16A/LL	.	4dd\	.	.	.	.	.
.	.	.	.	.	16f#/	.	.	.	.	.	.	.
8D\	.	.	8d\	.	16A/	.	.	.	.	.	.	.
.	.	.	.	.	16f#/	.	.	.	.	.	.	.
8D\	.	.	8d\	.	16A/	.	4r	.	.	.	.	.
.	.	.	.	.	16f#/	.	.	.	.	.	.	.
8DJ\	.	.	8dJ\	.	16A/	.	.	.	.	.	.	.
.	.	.	.	.	16f#/JJ	.	.	.	.	.	.	.
=10	=10	=10	=10	=10	=10	=10	=10	=10	=10	=10	=10	=10
8DL\	x x 6	.	8dL\	.	16B/LL	.	2g#X|>/	.	1ryy	1ryy	1ryy	1ryy
.	.	.	.	.	16g#X/	.	.	.	.	.	.	.
8D\	x x 4+r	.	8d\	.	16B/	.	.	.	.	.	.	.
.	.	.	.	.	16g#X/	.	.	.	.	.	.	.
8D\	.	.	8d\	.	16B/	.	.	.	.	.	.	.
.	.	.	.	.	16g#X/	.	.	.	.	.	.	.
8D\	.	.	8d\	.	16B/	.	.	.	.	.	.	.
.	.	.	.	.	16g#X/JJ	.	.	.	.	.	.	.
8D\	.	.	8d\	.	16B/LL	.	4b|>/	.	.	.	.	.
.	.	.	.	.	16g#/	.	.	.	.	.	.	.
8D\	.	.	8d\	.	16B/	.	.	.	.	.	.	.
.	.	.	.	.	16g#/	.	.	.	.	.	.	.
8D\	.	.	8d\	.	16B/	.	4dd|>/	.	.	.	.	.
.	.	.	.	.	16g#/	.	.	.	.	.	.	.
8DJ\	.	.	8dJ\	.	16B/	.	.	.	.	.	.	.
.	.	.	.	.	16g#/JJ	.	.	.	.	.	.	.
=11	=11	=11	=11	=11	=11	=11	=11	=11	=11	=11	=11	=11
!	!	!	!LO:LB:g=original	!	!	!	!	!	!	!	!	!
8DL\	.	.	8dL\	.	16B/LL	.	[4gg#X\	.	1ryy	1ryy	1ryy	1ryy
.	.	.	.	.	16g#X/	.	.	.	.	.	.	.
8D\	.	.	8d\	.	16B/	.	.	.	.	.	.	.
.	.	.	.	.	16g#X/	.	.	.	.	.	.	.
8D\	.	.	8d\	.	16B/	.	16gg#\LL]	.	.	.	.	.
.	.	.	.	.	16g#X/	.	16aa\	.	.	.	.	.
8D\	.	.	8d\	.	16B/	.	16bb\	.	.	.	.	.
.	.	.	.	.	16g#X/JJ	.	16aa'\JJ	.	.	.	.	.
8D\	.	.	8d\	.	16B/LL	.	4gg#\	.	.	.	.	.
.	.	.	.	.	16g#/	.	.	.	.	.	.	.
8D\	.	.	8d\	.	16B/	.	.	.	.	.	.	.
.	.	.	.	.	16g#/	.	.	.	.	.	.	.
8D\	.	.	8d\	.	16B/	.	4r	.	.	.	.	.
.	.	.	.	.	16g#/	.	.	.	.	.	.	.
8DJ\	.	.	8dJ\	.	16B/	.	.	.	.	.	.	.
.	.	.	.	.	16g#/JJ	.	.	.	.	.	.	.
=12	=12	=12	=12	=12	=12	=12	=12	=12	=12	=12	=12	=12
!	!	!	!	!	!LO:LB:g=original	!	!	!	!	!	!	!
!	!	!	!	!	!LO:TX:t=P:problem=mixed beam	!	!	!	!	!	!	!
8C#L\	x x 6	.	8e\L	.	16e/LL	.	[4aa\	.	1ryy	1ryy	1ryy	1ryy
.	.	.	.	.	16cc#\	.	.	.	.	.	.	.
8C#\	.	.	8e\	.	16e/	.	.	.	.	.	.	.
.	.	.	.	.	16cc#\	.	.	.	.	.	.	.
8C#\	.	.	8e\	.	16e/	.	16aa\LL]	.	.	.	.	.
.	.	.	.	.	16cc#\	.	16bb\	.	.	.	.	.
8C#\	.	.	8e\J	.	16e/	.	16ccc#\	.	.	.	.	.
.	.	.	.	.	16cc#\JJ	.	16bb\JJ	.	.	.	.	.
!	!	!	!	!	!LO:TX:t=P:problem=mixed beam	!	!	!	!	!	!	!
8C#\	.	.	8a\L	.	16e/LL	.	4aa\	.	.	.	.	.
.	.	.	.	.	16cc#\	.	.	.	.	.	.	.
8C#\	.	.	8a\	.	16e/	.	.	.	.	.	.	.
.	.	.	.	.	16cc#\	.	.	.	.	.	.	.
8C#\	.	.	8a\	.	16e/	.	4r	.	.	.	.	.
.	.	.	.	.	16cc#\	.	.	.	.	.	.	.
8C#J\	.	.	8a\J	.	16e/	.	.	.	.	.	.	.
.	.	.	.	.	16cc#\JJ	.	.	.	.	.	.	.
=13	=13	=13	=13	=13	=13	=13	=13	=13	=13	=13	=13	=13
!LO:LB:g=original	!	!	!	!	!LO:TX:t=P:problem=mixed beam	!	!LO:LB:g=original	!	!	!	!	!
8GG#XL\	.	.	8eL\	.	16e/LL	.	[4bb\	.	1ryy	1ryy	1ryy	1ryy
.	.	.	.	.	16cc#\	.	.	.	.	.	.	.
8GG#X\	.	.	8e\	.	16e/	.	.	.	.	.	.	.
.	.	.	.	.	16cc#\	.	.	.	.	.	.	.
8GG#X\	.	.	8e\	.	16e/	.	16bb\LL]	.	.	.	.	.
.	.	.	.	.	16cc#\	.	16ccc#\	.	.	.	.	.
8GG#X\	.	.	8e\	.	16e/	.	16ddd\	.	.	.	.	.
.	.	.	.	.	16cc#\JJ	.	16ccc#\JJ	.	.	.	.	.
!	!	!	!	!	!LO:TX:t=P:problem=mixed beam	!	!	!	!	!	!	!
8GG#X\	.	.	8e\	.	16e/LL	.	4bb\	.	.	.	.	.
.	.	.	.	.	16dd\	.	.	.	.	.	.	.
8GG#X\	.	.	8e\	.	16e/	.	.	.	.	.	.	.
.	.	.	.	.	16dd\	.	.	.	.	.	.	.
8GG#X\	.	.	8e\	.	16e/	.	4r	.	.	.	.	.
.	.	.	.	.	16dd\	.	.	.	.	.	.	.
8GG#XJ\	.	.	8eJ\	.	16e/	.	.	.	.	.	.	.
.	.	.	.	.	16dd\JJ	.	.	.	.	.	.	.
*Xtremolo	*	*	*	*	*Xtremolo	*	*	*	*	*	*	*
=14	=14	=14	=14	=14	=14	=14	=14	=14	=14	=14	=14	=14
!	!	!	!	!	!	!LO:DY:rj	!	!	!	!	!	!
4AA/	.	.	8aL\	p	8ee\|>	p	8ccc#|\	p	1ryy	1ryy	1ryy	1ryy
.	.	.	8a\	.	8r	.	8r	.	.	.	.	.
4r	.	.	8a\	.	8cc#\|>	.	8aa\|	.	.	.	.	.
.	.	.	8a\	.	8r	.	8r	.	.	.	.	.
2r	.	.	8a\	.	8cc#\|>	.	8ee\|	.	.	.	.	.
.	.	.	8a\	.	8r	.	8r	.	.	.	.	.
.	.	.	8a\	.	8a\|>	.	8cc#\|	.	.	.	.	.
.	.	.	8aJ\	.	8r	.	8r	.	.	.	.	.
=15	=15	=15	=15	=15	=15	=15	=15	=15	=15	=15	=15	=15
*	*	*	*	*	*tremolo	*	*	*	*	*	*	*
!	!	!	!	!LO:DY:rj:t=f&colon;	!	!LO:DY:rj:t=f&colon;	!	!LO:DY:t=f.	!	!	!	!
1D	6 4+r 2	.	8eL\	f	16e/LL	f	[4gg#X\	f	1ryy	1ryy	1ryy	1ryy
.	.	.	.	.	16b/	.	.	.	.	.	.	.
.	.	.	8e\	.	16e/	.	.	.	.	.	.	.
.	.	.	.	.	16b/	.	.	.	.	.	.	.
.	.	.	8e\	.	16e/	.	16gg#\LL]	.	.	.	.	.
.	.	.	.	.	16b/	.	16aa\	.	.	.	.	.
.	.	.	8e\	.	16e/	.	16bb\	.	.	.	.	.
.	.	.	.	.	16b/JJ	.	16aa\JJ	.	.	.	.	.
.	.	.	8e\	.	16e/LL	.	4gg#\	.	.	.	.	.
.	.	.	.	.	16b/	.	.	.	.	.	.	.
.	.	.	8e\	.	16e/	.	.	.	.	.	.	.
.	.	.	.	.	16b/	.	.	.	.	.	.	.
.	.	.	8e\	.	16e/	.	4r	.	.	.	.	.
.	.	.	.	.	16b/	.	.	.	.	.	.	.
.	.	.	8eJ\	.	16e/	.	.	.	.	.	.	.
.	.	.	.	.	16b/JJ	.	.	.	.	.	.	.
=16	=16	=16	=16	=16	=16	=16	=16	=16	=16	=16	=16	=16
1C#	x x 6	.	8eL\	.	16e/LL	.	[4aa\	.	1ryy	1ryy	1ryy	1ryy
.	.	.	.	.	16cc#/	.	.	.	.	.	.	.
.	.	.	8e\	.	16e/	.	.	.	.	.	.	.
.	.	.	.	.	16cc#/	.	.	.	.	.	.	.
.	.	.	8e\	.	16e/	.	16aa\LL]	.	.	.	.	.
.	.	.	.	.	16cc#/	.	16bb\	.	.	.	.	.
.	.	.	8e\	.	16e/	.	16ccc#\	.	.	.	.	.
.	.	.	.	.	16cc#/JJ	.	16bb\JJ	.	.	.	.	.
.	.	.	8e\	.	16e/LL	.	4aa\	.	.	.	.	.
.	.	.	.	.	16cc#/	.	.	.	.	.	.	.
.	.	.	8e\	.	16e/	.	.	.	.	.	.	.
.	.	.	.	.	16cc#/	.	.	.	.	.	.	.
.	.	.	8e\	.	16e/	.	4r	.	.	.	.	.
.	.	.	.	.	16cc#/	.	.	.	.	.	.	.
.	.	.	8eJ\	.	16e/	.	.	.	.	.	.	.
.	.	.	.	.	16cc#/JJ	.	.	.	.	.	.	.
=17	=17	=17	=17	=17	=17	=17	=17	=17	=17	=17	=17	=17
*tremolo	*	*	*	*	*	*	*	*	*	*	*	*
!	!	!	!	!	!LO:TX:t=P:problem=mixed beam	!	!	!	!	!	!	!
8GG#X/L	x 6 5	.	8eL\	.	16e/LL	.	[4bb\	.	1ryy	1ryy	1ryy	1ryy
.	.	.	.	.	16dd\	.	.	.	.	.	.	.
8GG#X/	.	.	8e\	.	16e/	.	.	.	.	.	.	.
.	.	.	.	.	16dd\	.	.	.	.	.	.	.
8GG#X/	.	.	8e\	.	16e/	.	16bb\LL]	.	.	.	.	.
.	.	.	.	.	16dd\	.	16ccc#\	.	.	.	.	.
8GG#X/J	.	.	8e\	.	16e/	.	16ddd\	.	.	.	.	.
.	.	.	.	.	16dd\JJ	.	16ccc#\JJ	.	.	.	.	.
!	!	!	!	!	!LO:TX:t=P:problem=mixed beam	!	!	!	!	!	!	!
8GG#/L	.	.	8e\	.	16e/LL	.	4bb\	.	.	.	.	.
.	.	.	.	.	16dd\	.	.	.	.	.	.	.
8GG#/	.	.	8e\	.	16e/	.	.	.	.	.	.	.
.	.	.	.	.	16dd\	.	.	.	.	.	.	.
8GG#/	.	.	8e\	.	16e/	.	4r	.	.	.	.	.
.	.	.	.	.	16dd\	.	.	.	.	.	.	.
8GG#/J	.	.	8eJ\	.	16e/	.	.	.	.	.	.	.
.	.	.	.	.	16dd\JJ	.	.	.	.	.	.	.
*Xtremolo	*	*	*	*	*Xtremolo	*	*	*	*	*	*	*
=18	=18	=18	=18	=18	=18	=18	=18	=18	=18	=18	=18	=18
!	!	!	!	!LO:DY:rj	!LO:LB:g=original	!LO:DY:rj	!LO:LB:g=original	!	!	!	!	!
4AA/	.	.	8aL\	p	8ee\|>	p	8ccc#\|	p	1ryy	1ryy	1ryy	1ryy
.	.	.	8a\	.	8r	.	8r	.	.	.	.	.
4r	.	.	8a\	.	8cc#\|>	.	8aa\|	.	.	.	.	.
.	.	.	8a\	.	8r	.	8r	.	.	.	.	.
2r	.	.	8a\	.	8cc#\|>	.	8ee\|	.	.	.	.	.
.	.	.	8a\	.	8r	.	8r	.	.	.	.	.
.	.	.	8a\	.	8a\|>	.	8cc#\|	.	.	.	.	.
.	.	.	8aJ\	.	8r	.	8r	.	.	.	.	.
=19	=19	=19	=19	=19	=19	=19	=19	=19	=19	=19	=19	=19
*tremolo	*	*	*	*	*	*	*	*	*	*	*	*
!	!	!LO:DY:rj	!	!LO:DY:rj	!	!LO:DY:rj	!	!LO:DY:rj	!	!	!	!
8G#X\L	x 6 5	f	16eLL\	fp	2e/ 2b	f	2e/ 2dd	f	1ryy	1ryy	1ryy	1ryy
.	.	.	16e\	.	.	.	.	.	.	.	.	.
8G#X\	.	.	16e\	.	.	.	.	.	.	.	.	.
.	.	.	16e\	.	.	.	.	.	.	.	.	.
8G#X\	.	.	16e\	.	.	.	.	.	.	.	.	.
.	.	.	16e\	.	.	.	.	.	.	.	.	.
8G#X\J	.	.	16e\	.	.	.	.	.	.	.	.	.
.	.	.	16e\	.	.	.	.	.	.	.	.	.
!	!	!	!	!	!	!LO:DY:rj	!	!LO:DY:rj	!	!	!	!
8G#\L	.	p	16e\	.	8dd\|>	p	8bb\|	p	.	.	.	.
.	.	.	16e\	.	.	.	.	.	.	.	.	.
8G#\	.	.	16e\	.	8r	.	8r	.	.	.	.	.
.	.	.	16e\	.	.	.	.	.	.	.	.	.
8G#\	.	.	16e\	.	8b\|>	.	8dd\|	.	.	.	.	.
.	.	.	16e\	.	.	.	.	.	.	.	.	.
8G#\J	.	.	16e\	.	8r	.	8r	.	.	.	.	.
.	.	.	16eJJ\	.	.	.	.	.	.	.	.	.
=20	=20	=20	=20	=20	=20	=20	=20	=20	=20	=20	=20	=20
8A\L	.	.	16e\LL	.	8a\|>	.	8cc#\|	.	1ryy	1ryy	1ryy	1ryy
.	.	.	16e\	.	.	.	.	.	.	.	.	.
8A\	.	.	16e\	.	8r	.	8r	.	.	.	.	.
.	.	.	16e\	.	.	.	.	.	.	.	.	.
8A\	.	.	16e\	.	8cc#\|>	.	8ee\|	.	.	.	.	.
.	.	.	16e\	.	.	.	.	.	.	.	.	.
8A\J	.	.	16e\	.	8r	.	8r	.	.	.	.	.
.	.	.	16e\JJ	.	.	.	.	.	.	.	.	.
8D#X/L	x x 7	.	16f#\LL	.	8cc#\|>	.	8aa\	.	.	.	.	.
.	.	.	16f#\	.	.	.	.	.	.	.	.	.
8D#X/	.	.	16f#\	.	8r	.	8r	.	.	.	.	.
.	.	.	16f#\	.	.	.	.	.	.	.	.	.
8D#X/	.	.	16f#\	.	8a\|>	.	8cc#\|	.	.	.	.	.
.	.	.	16f#\	.	.	.	.	.	.	.	.	.
8D#X/J	.	.	16f#\	.	8r	.	8r	.	.	.	.	.
.	.	.	16f#\JJ	.	.	.	.	.	.	.	.	.
=21	=21	=21	=21	=21	=21	=21	=21	=21	=21	=21	=21	=21
!	!	!LO:DY:rj	!	!LO:DY:rj	!	!LO:DY:rj	!	!LO:DY:rj	!	!	!	!
8E\L	x 7 #	f	16eLL\	fp	2e/ 2b	f	2e/ 2dd	f	1ryy	1ryy	1ryy	1ryy
.	.	.	16e\	.	.	.	.	.	.	.	.	.
8E\	.	.	16e\	.	.	.	.	.	.	.	.	.
.	.	.	16e\	.	.	.	.	.	.	.	.	.
8E\	.	.	16e\	.	.	.	.	.	.	.	.	.
.	.	.	16e\	.	.	.	.	.	.	.	.	.
8E\J	.	.	16e\	.	.	.	.	.	.	.	.	.
.	.	.	16e\	.	.	.	.	.	.	.	.	.
!	!	!LO:DY:t=p.	!	!	!	!	!	!LO:DY:rj	!	!	!	!
8G#X\L	x 6 5	p	16e\	.	8dd\|>	.	8bb\|	p	.	.	.	.
.	.	.	16e\	.	.	.	.	.	.	.	.	.
8G#X\	.	.	16e\	.	8r	.	8r	.	.	.	.	.
.	.	.	16e\	.	.	.	.	.	.	.	.	.
8G#X\	.	.	16e\	.	8b\|>	.	8dd\|	.	.	.	.	.
.	.	.	16e\	.	.	.	.	.	.	.	.	.
8G#X\J	.	.	16e\	.	8r	.	8r	.	.	.	.	.
.	.	.	16eJJ\	.	.	.	.	.	.	.	.	.
=22	=22	=22	=22	=22	=22	=22	=22	=22	=22	=22	=22	=22
!	!	!	!LO:LB:g=original	!	!	!	!	!	!	!	!	!
8A\L	.	.	16e\LL	.	8a\|>	.	8cc#\|	.	1ryy	1ryy	1ryy	1ryy
.	.	.	16e\	.	.	.	.	.	.	.	.	.
8A\	.	.	16e\	.	8r	.	8r	.	.	.	.	.
.	.	.	16e\	.	.	.	.	.	.	.	.	.
8A\	.	.	16e\	.	8cc#\|>	.	8ee\|	.	.	.	.	.
.	.	.	16e\	.	.	.	.	.	.	.	.	.
8A\J	.	.	16e\	.	8r	.	8r	.	.	.	.	.
.	.	.	16e\JJ	.	.	.	.	.	.	.	.	.
8D#X\L	x x 7	.	16f#\LL	.	8cc#\|>	.	8aa\|	.	.	.	.	.
.	.	.	16f#\	.	.	.	.	.	.	.	.	.
8D#X\	.	.	16f#\	.	8r	.	8r	.	.	.	.	.
.	.	.	16f#\	.	.	.	.	.	.	.	.	.
8D#X\	.	.	16f#\	.	8a\|>	.	8cc#\	.	.	.	.	.
.	.	.	16f#\	.	.	.	.	.	.	.	.	.
8D#X\J	.	.	16f#\	.	8r	.	8r	.	.	.	.	.
.	.	.	16f#\JJ	.	.	.	.	.	.	.	.	.
=23	=23	=23	=23	=23	=23	=23	=23	=23	=23	=23	=23	=23
!LO:LB:g=original	!	!	!	!LO:DY:rj	!LO:LB:g=original	!	!LO:LB:g=original	!	!	!	!	!
8E\L	x x #	.	8eL\	p	8b\|>	.	8b/|>	.	1ryy	1ryy	1ryy	1ryy
8E\	.	.	8e\	.	8r	.	8r	.	.	.	.	.
8E\	.	.	8e\	.	8e/|>	.	8e/|>	.	.	.	.	.
8E\J	.	.	8e\	.	8r	.	8r	.	.	.	.	.
8E\L	.	.	8e\	.	2r	.	2r	.	.	.	.	.
8E\	.	.	8e\	.	.	.	.	.	.	.	.	.
8E\	.	.	8e\	.	.	.	.	.	.	.	.	.
8E\J	.	.	8eJ\	.	.	.	.	.	.	.	.	.
*Xtremolo	*	*	*Xtremolo	*	*	*	*	*	*	*	*	*
=24	=24	=24	=24	=24	=24	=24	=24	=24	=24	=24	=24	=24
!	!	!LO:DY:t=p.:rj	!	!	!	!	!LO:TX:a:t=S&colon;	!LO:DY:t=po	!	!	!	!
4E\	x x _	p	4e\	.	4r	.	4r	p	1ryy	1ryy	1ryy	1ryy
!	!	!	!	!	!	!LO:DY:t=po	!	!	!	!	!	!
4r	x x x	.	4r	.	4g#X/	p	4b/	.	.	.	.	.
2r	.	.	2r	.	(4b/	.	(4dd/	.	.	.	.	.
.	.	.	.	.	4a/)	.	4cc#/)	.	.	.	.	.
=25	=25	=25	=25	=25	=25	=25	=25	=25	=25	=25	=25	=25
4E\	x 6 4	.	4e\	.	4r	.	4r	.	1ryy	1ryy	1ryy	1ryy
4r	.	.	4r	.	4a|</	.	4cc#/	.	.	.	.	.
2r	.	.	2r	.	(4cc#/	.	(4ee/	.	.	.	.	.
.	.	.	.	.	4b/)	.	4dd/)	.	.	.	.	.
=26	=26	=26	=26	=26	=26	=26	=26	=26	=26	=26	=26	=26
4E\	x 7 #	.	4e\	.	4r	.	4r	.	1ryy	1ryy	1ryy	1ryy
4r	.	.	4r	.	4b|>\	.	4dd\	.	.	.	.	.
2r	.	.	2r	.	(4dd\	.	(4ff#\	.	.	.	.	.
.	.	.	.	.	4cc#\)	.	4ee\)	.	.	.	.	.
=27	=27	=27	=27	=27	=27	=27	=27	=27	=27	=27	=27	=27
4r	.	.	4r	.	4.cc#\	fp	4.ee\	fp	1ryy	1ryy	1ryy	1ryy
4G#X\	x 6 5	.	4e\	.	.	.	.	.	.	.	.	.
.	.	.	.	.	8b\	.	8dd\	.	.	.	.	.
!	!	!	!	!	!	!	!LO:TX:t=P:problem=cue note pozostała po korekcie	!	!	!	!	!
4A\	.	.	4a\	.	4a/	.	4cc#\	.	.	.	.	.
4AA/	.	.	4A/	.	4r	.	4r	.	.	.	.	.
=28	=28	=28	=28	=28	=28	=28	=28	=28	=28	=28	=28	=28
!	!	!	!	!	!	!	!LO:TX:t=P:problem=cue rest pozostała po korekcie	!	!	!	!	!
4E\	x x #	.	4e\	.	4r	.	4r	.	1ryy	1ryy	1ryy	1ryy
4r	.	.	4r	.	4g#X/|>	.	4b\	.	.	.	.	.
2r	.	.	2r	.	(4b/	.	(4dd\	.	.	.	.	.
.	.	.	.	.	4a/)	.	4cc#\)	.	.	.	.	.
=29	=29	=29	=29	=29	=29	=29	=29	=29	=29	=29	=29	=29
4E\	x 6 4	.	4e\	.	4r	.	4r	.	1ryy	1ryy	1ryy	1ryy
4r	.	.	4r	.	4a/|>	.	4cc#\	.	.	.	.	.
2r	.	.	2r	.	(4cc#/	.	(4ee\	.	.	.	.	.
.	.	.	.	.	4b/)	.	4dd\)	.	.	.	.	.
=30	=30	=30	=30	=30	=30	=30	=30	=30	=30	=30	=30	=30
!	!	!	!	!	!LO:LB:g=original	!	!LO:LB:g=original	!	!	!	!	!
4E\	x 7 #	.	4e\	.	4r	.	4r	.	1ryy	1ryy	1ryy	1ryy
4r	.	.	4r	.	4b/|>	.	4dd\	.	.	.	.	.
2r	.	.	2r	.	(4dd/|>	.	(4ff#\	.	.	.	.	.
.	.	.	.	.	4cc#/)	.	4ee\)	.	.	.	.	.
=31	=31	=31	=31	=31	=31	=31	=31	=31	=31	=31	=31	=31
!	!	!	!LO:LB:g=original	!	!	!	!	!LO:DY:rj	!	!	!	!
4r	.	.	4r	.	4.cc#\	p	4.ee\	fp	1ryy	1ryy	1ryy	1ryy
4G#X\	x 6 5	.	4e\	.	.	.	.	.	.	.	.	.
.	.	.	.	.	8b\	.	8dd\	.	.	.	.	.
4A\	.	.	4a\	.	4a/	.	4cc#\	.	.	.	.	.
4ryy	.	.	4A/	.	4r	.	4r	.	.	.	.	.
=32	=32	=32	=32	=32	=32	=32	=32	=32	=32	=32	=32	=32
*	*	*	*	*	*^	*	*^	*	*	*	*	*
*	*	*	*	*	*cue	*	*	*cue	*	*	*	*	*	*
!LO:LB:g=original	!	!	!	!	!	!	!	!	!	!	!	!	!	!
4r	.	.	4r	.	4.ccn/	1r	.	4.ee/	1r	.	1ryy	1ryy	1ryy	1ryy
4G#X\	x 6 5	.	4e\	.	.	.	.	.	.	.	.	.	.	.
.	.	.	.	.	8b/	.	.	8dd/	.	.	.	.	.	.
4A\	x x n	.	4a\	.	4a/	.	.	4ccn/	.	.	.	.	.	.
4AA/	.	.	4A/	.	4r	.	.	4ryy	.	.	.	.	.	.
=33	=33	=33	=33	=33	=33	=33	=33	=33	=33	=33	=33	=33	=33	=33
!	!	!	!	!	!LO:SIC:v:s=4.ccn/	!	!	!	!	!	!	!	!	!
4r	.	.	4r	.	4.cc#/	1r	.	4.ee/	1r	.	1ryy	1ryy	1ryy	1ryy
4G#X\	x 6 5	.	4e\	.	.	.	.	.	.	.	.	.	.	.
.	.	.	.	.	8b/	.	.	8dd/	.	.	.	.	.	.
4A\	x x n	.	4a\	.	4a/	.	.	4ccn/	.	.	.	.	.	.
4AA/	.	.	4A/	.	4r	.	.	4g/	.	.	.	.	.	.
=34	=34	=34	=34	=34	=34	=34	=34	=34	=34	=34	=34	=34	=34	=34
4E\	x 6n 4	.	4e\	.	4a/	1r	.	4ccn/	1r	.	1ryy	1ryy	1ryy	1ryy
4EE/	x 5 #	.	4E/	.	4g#X/	.	.	4b/	.	.	.	.	.	.
2r	.	.	2r	.	2re	.	.	4r	.	.	.	.	.	.
.	.	.	.	.	.	.	.	4ryy	.	.	.	.	.	.
*	*	*	*	*	*v	*v	*	*	*	*	*	*	*	*
*	*	*	*	*	*	*	*v	*v	*	*	*	*	*
=35	=35	=35	=35	=35	=35	=35	=35	=35	=35	=35	=35	=35
*	*	*	*	*	*tremolo	*	*Xcue	*	*	*	*	*
*	*	*	*	*	*Xcue	*	*tremolo	*	*	*	*	*
!LO:TX:t=mez vo&colon;:b	!	!	!LO:TX:b:t=mezza voce	!	!LO:TX:b:t=mezzavoce	!	!LO:TX:b:t=mez vo&colon;	!	!	!	!	!
4r	.	.	4r	.	16ccn\LL	.	16eeLL\	.	1ryy	1ryy	1ryy	1ryy
.	.	.	.	.	16ccn\	.	16ee\	.	.	.	.	.
.	.	.	.	.	16ccn\	.	16ee\	.	.	.	.	.
.	.	.	.	.	16ccn\	.	16ee\	.	.	.	.	.
4An\	.	.	4a\	.	16ccn\	.	16ee\	.	.	.	.	.
.	.	.	.	.	16ccn\	.	16ee\	.	.	.	.	.
.	.	.	.	.	16ccn\	.	16ee\	.	.	.	.	.
.	.	.	.	.	16ccn\JJ	.	16ee\	.	.	.	.	.
4cn\	.	.	4ccn\	.	16cc\LL	.	16ee\	.	.	.	.	.
.	.	.	.	.	16cc\	.	16ee\	.	.	.	.	.
.	.	.	.	.	16cc\	.	16ee\	.	.	.	.	.
.	.	.	.	.	16cc\	.	16ee\	.	.	.	.	.
4A\	.	.	4a\	.	16cc\	.	16ee\	.	.	.	.	.
.	.	.	.	.	16cc\	.	16ee\	.	.	.	.	.
.	.	.	.	.	16cc\	.	16ee\	.	.	.	.	.
.	.	.	.	.	16cc\JJ	.	16eeJJ\	.	.	.	.	.
=36	=36	=36	=36	=36	=36	=36	=36	=36	=36	=36	=36	=36
!	!	!	!	!	!LO:SIC:v:s=16ccn\LL	!	!	!	!	!	!	!
4e\	x x 6	.	4ee\	.	16cc#\LL	.	16ee\LL	.	1ryy	1ryy	1ryy	1ryy
!	!	!	!	!	!LO:SIC:v:s=16cc\	!	!	!	!	!	!	!
.	.	.	.	.	16cc#\	.	16ee\	.	.	.	.	.
!	!	!	!	!	!LO:SIC:v:s=16cc\	!	!	!	!	!	!	!
.	.	.	.	.	16cc#\	.	16ee\	.	.	.	.	.
!	!	!	!	!	!LO:SIC:v:s=16cc\	!	!	!	!	!	!	!
.	.	.	.	.	16cc#\	.	16ee\	.	.	.	.	.
!	!	!	!	!	!LO:SIC:v:s=16cc\	!	!	!	!	!	!	!
4E/	.	.	4e\	.	16cc#\	.	16ee\	.	.	.	.	.
!	!	!	!	!	!LO:SIC:v:s=16cc\	!	!	!	!	!	!	!
.	.	.	.	.	16cc#\	.	16ee\	.	.	.	.	.
!	!	!	!	!	!LO:SIC:v:s=16cc\	!	!	!	!	!	!	!
.	.	.	.	.	16cc#\	.	16ee\	.	.	.	.	.
!	!	!	!	!	!LO:SIC:v:s=16cc\JJ	!	!	!	!	!	!	!
.	.	.	.	.	16cc#\JJ	.	16ee\JJ	.	.	.	.	.
4G#X\	x 6 5	.	4g#X\	.	16b\LL	.	16dd\LL	.	.	.	.	.
.	.	.	.	.	16b\	.	16dd\	.	.	.	.	.
.	.	.	.	.	16b\	.	16dd\	.	.	.	.	.
.	.	.	.	.	16b\	.	16dd\	.	.	.	.	.
4E\	.	.	4e\	.	16b\	.	16dd\	.	.	.	.	.
.	.	.	.	.	16b\	.	16dd\	.	.	.	.	.
.	.	.	.	.	16b\	.	16dd\	.	.	.	.	.
.	.	.	.	.	16b\JJ	.	16dd\JJ	.	.	.	.	.
=37	=37	=37	=37	=37	=37	=37	=37	=37	=37	=37	=37	=37
!	!	!	!LO:LB:g=original	!	!	!	!	!	!	!	!	!
4r	.	.	4r	.	16a/LL	.	16ccnLL\	.	1ryy	1ryy	1ryy	1ryy
.	.	.	.	.	16a/	.	16ccn\	.	.	.	.	.
.	.	.	.	.	16a/	.	16ccn\	.	.	.	.	.
.	.	.	.	.	16a/	.	16ccn\	.	.	.	.	.
4Fn\	.	.	4fn\	.	16a/	.	16ccn\	.	.	.	.	.
.	.	.	.	.	16a/	.	16ccn\	.	.	.	.	.
.	.	.	.	.	16a/	.	16ccn\	.	.	.	.	.
.	.	.	.	.	16a/JJ	.	16ccn\	.	.	.	.	.
4A\	.	.	4a\	.	16a/LL	.	16ccn\	.	.	.	.	.
.	.	.	.	.	16a/	.	16ccn\	.	.	.	.	.
.	.	.	.	.	16a/	.	16ccn\	.	.	.	.	.
.	.	.	.	.	16a/	.	16ccn\	.	.	.	.	.
4F\	.	.	4f\	.	16a/	.	16ccn\	.	.	.	.	.
.	.	.	.	.	16a/	.	16ccn\	.	.	.	.	.
.	.	.	.	.	16a/	.	16ccn\	.	.	.	.	.
.	.	.	.	.	16a/JJ	.	16ccnJJ\	.	.	.	.	.
=38	=38	=38	=38	=38	=38	=38	=38	=38	=38	=38	=38	=38
!	!	!	!	!	!LO:LB:g=original	!	!LO:SIC:v:s=16ccn\LL	!	!	!	!	!
4cn\	x x 4n	.	4ccn\	.	16a/LL	.	16cc#\LL	.	1ryy	1ryy	1ryy	1ryy
!	!	!	!	!	!	!	!LO:SIC:v:s=16cc\	!	!	!	!	!
.	.	.	.	.	16a/	.	16cc#\	.	.	.	.	.
!	!	!	!	!	!	!	!LO:SIC:v:s=16cc\	!	!	!	!	!
.	.	.	.	.	16a/	.	16cc#\	.	.	.	.	.
!	!	!	!	!	!	!	!LO:SIC:v:s=16cc\	!	!	!	!	!
.	.	.	.	.	16a/	.	16cc#\	.	.	.	.	.
!	!	!	!	!	!	!	!LO:SIC:v:s=16cc\	!	!	!	!	!
4Cn/	.	.	4cny/	.	16a/	.	16cc#\	.	.	.	.	.
!	!	!	!	!	!	!	!LO:SIC:v:s=16cc\	!	!	!	!	!
.	.	.	.	.	16a/	.	16cc#\	.	.	.	.	.
!	!	!	!	!	!	!	!LO:SIC:v:s=16cc\	!	!	!	!	!
.	.	.	.	.	16a/	.	16cc#\	.	.	.	.	.
!	!	!	!	!	!	!	!LO:SIC:v:s=16cc\JJ	!	!	!	!	!
.	.	.	.	.	16a/JJ	.	16cc#\JJ	.	.	.	.	.
4E/	.	.	4e\	.	16gn/LL	.	16b-X\LL	.	.	.	.	.
.	.	.	.	.	16gn/	.	16b-X\	.	.	.	.	.
.	.	.	.	.	16gn/	.	16b-X\	.	.	.	.	.
.	.	.	.	.	16gn/	.	16b-X\	.	.	.	.	.
4C/	.	.	4c/	.	16gn/	.	16b-X\	.	.	.	.	.
.	.	.	.	.	16gn/	.	16b-X\	.	.	.	.	.
.	.	.	.	.	16gn/	.	16b-X\	.	.	.	.	.
.	.	.	.	.	16gn/JJ	.	16b-X\JJ	.	.	.	.	.
=39	=39	=39	=39	=39	=39	=39	=39	=39	=39	=39	=39	=39
!LO:LB:g=original	!	!	!	!	!	!	!LO:LB:g=original	!	!	!	!	!
4r	x x n	.	4r	.	16fn/LL	.	16aLL\	.	1ryy	1ryy	1ryy	1ryy
.	.	.	.	.	16fn/	.	16a\	.	.	.	.	.
.	.	.	.	.	16fn/	.	16a\	.	.	.	.	.
.	.	.	.	.	16fn/	.	16a\	.	.	.	.	.
4D\	.	.	4d\	.	16fn/	.	16a\	.	.	.	.	.
.	.	.	.	.	16fn/	.	16a\	.	.	.	.	.
.	.	.	.	.	16fn/	.	16a\	.	.	.	.	.
.	.	.	.	.	16fn/JJ	.	16a\	.	.	.	.	.
4Fn\	.	.	4fn\	.	16f/LL	.	16a\	.	.	.	.	.
.	.	.	.	.	16f/	.	16a\	.	.	.	.	.
.	.	.	.	.	16f/	.	16a\	.	.	.	.	.
.	.	.	.	.	16f/	.	16a\	.	.	.	.	.
4D/	.	.	4d\	.	16f/	.	16a\	.	.	.	.	.
.	.	.	.	.	16f/	.	16a\	.	.	.	.	.
.	.	.	.	.	16f/	.	16a\	.	.	.	.	.
.	.	.	.	.	16f/JJ	.	16aJJ\	.	.	.	.	.
=40	=40	=40	=40	=40	=40	=40	=40	=40	=40	=40	=40	=40
!	!	!	!	!	!LO:SIC:v:s=16fn/LL	!	!	!	!	!	!	!
4A\	.	.	4a\	.	16f#/LL	.	16a/LL	.	1ryy	1ryy	1ryy	1ryy
!	!	!	!	!	!LO:SIC:v:s=16f/	!	!	!	!	!	!	!
.	.	.	.	.	16f#/	.	16a/	.	.	.	.	.
!	!	!	!	!	!LO:SIC:v:s=16f/	!	!	!	!	!	!	!
.	.	.	.	.	16f#/	.	16a/	.	.	.	.	.
!	!	!	!	!	!LO:SIC:v:s=16f/	!	!	!	!	!	!	!
.	.	.	.	.	16f#/	.	16a/	.	.	.	.	.
!	!	!	!	!	!LO:SIC:v:s=16f/	!	!	!	!	!	!	!
4AA/	.	.	4A/	.	16f#/	.	16a/	.	.	.	.	.
!	!	!	!	!	!LO:SIC:v:s=16f/	!	!	!	!	!	!	!
.	.	.	.	.	16f#/	.	16a/	.	.	.	.	.
!	!	!	!	!	!LO:SIC:v:s=16f/	!	!	!	!	!	!	!
.	.	.	.	.	16f#/	.	16a/	.	.	.	.	.
!	!	!	!	!	!LO:SIC:v:s=16f/JJ	!	!	!	!	!	!	!
.	.	.	.	.	16f#/JJ	.	16a/JJ	.	.	.	.	.
!LO:SIC:v:s=4C#/:t=?	!	!	!LO:SIC:v:s=4c#/:t=?	!	!	!	!	!	!	!	!	!
4Cn/	.	.	4cn/	.	16e/LL	.	16gn/LL	.	.	.	.	.
.	.	.	.	.	16e/	.	16gn/	.	.	.	.	.
.	.	.	.	.	16e/	.	16gn/	.	.	.	.	.
.	.	.	.	.	16e/	.	16gn/	.	.	.	.	.
4AAn/	.	.	4A/	.	16e/	.	16gn/	.	.	.	.	.
.	.	.	.	.	16e/	.	16gn/	.	.	.	.	.
.	.	.	.	.	16e/	.	16gn/	.	.	.	.	.
.	.	.	.	.	16e/JJ	.	16gn/JJ	.	.	.	.	.
=41	=41	=41	=41	=41	=41	=41	=41	=41	=41	=41	=41	=41
4r	.	.	4r	.	16d#X/LL	.	16f#LL\	.	1ryy	1ryy	1ryy	1ryy
.	.	.	.	.	16d#X/	.	16f#\	.	.	.	.	.
.	.	.	.	.	16d#X/	.	16f#\	.	.	.	.	.
.	.	.	.	.	16d#X/	.	16f#\	.	.	.	.	.
4BB/	.	.	4B/	.	16d#X/	.	16f#	.	.	.	.	.
.	.	.	.	.	16d#X/	.	16f#\	.	.	.	.	.
.	.	.	.	.	16d#X/	.	16f#\\	.	.	.	.	.
.	.	.	.	.	16d#X/JJ	.	16f#\	.	.	.	.	.
4D#X/	.	.	4d#X/	.	16d#/LL	.	16f#\	.	.	.	.	.
.	.	.	.	.	16d#/	.	16f#\	.	.	.	.	.
.	.	.	.	.	16d#/	.	16f#\	.	.	.	.	.
.	.	.	.	.	16d#/	.	16f#\	.	.	.	.	.
4BB/	.	.	4B/	.	16d#/	.	16f#\	.	.	.	.	.
.	.	.	.	.	16d#/	.	16f#\	.	.	.	.	.
.	.	.	.	.	16d#/	.	16f#\	.	.	.	.	.
.	.	.	.	.	16d#/JJ	.	16f#JJ\	.	.	.	.	.
=42	=42	=42	=42	=42	=42	=42	=42	=42	=42	=42	=42	=42
*tremolo	*	*	*tremolo	*	*	*	*	*	*	*	*	*
!	!	!LO:HP:b:t=cres	!	!LO:HP:b:t=cres	!	!LO:HP:t=cres&colon;	!	!LO:HP:b:t=cres	!	!	!	!
8EL\	.	<	8eL\	<	16e/LL	<	16g#X/LL	<	1ryy	1ryy	1ryy	1ryy
.	.	.	.	.	16e/	.	16g#X/	.	.	.	.	.
8E\	.	.	8e\	.	16e/	.	16g#X/	.	.	.	.	.
.	.	.	.	.	16e/	.	16g#X/	.	.	.	.	.
8E\	.	.	8e\	.	16e/	.	16g#X/	.	.	.	.	.
.	.	.	.	.	16e/	.	16g#X/	.	.	.	.	.
8E\	.	.	8e\	.	16e/	.	16g#X/	.	.	.	.	.
.	.	.	.	.	16e/JJ	.	16g#X/JJ	.	.	.	.	.
8E\	.	.	8e\	.	16f#X/LL	.	16a/LL	.	.	.	.	.
.	.	.	.	.	16f#X/	.	16a/	.	.	.	.	.
8E\	.	.	8e\	.	16f#X/	.	16a/	.	.	.	.	.
.	.	.	.	.	16f#X/	.	16a/	.	.	.	.	.
8E\	.	.	8e\	.	16f#X/	.	16a/	.	.	.	.	.
.	.	.	.	.	16f#X/	.	16a/	.	.	.	.	.
8EJ\	.	.	8eJ\	.	16f#X/	.	16a/	.	.	.	.	.
.	.	.	.	.	16f#X/JJ	.	16a/JJ	.	.	.	.	.
=43	=43	=43	=43	=43	=43	=43	=43	=43	=43	=43	=43	=43
!	!	!	!LO:LB:g=original	!	!	!	!	!	!	!	!	!
8EL\	.	.	8eL\	.	16g#X/LL	.	16b/LL	.	1ryy	1ryy	1ryy	1ryy
.	.	.	.	.	16g#X/	.	16b/	.	.	.	.	.
8E\	.	.	8e\	.	16g#X/	.	16b/	.	.	.	.	.
.	.	.	.	.	16g#X/	.	16b/	.	.	.	.	.
8E\	.	.	8e\	.	16g#X/	.	16b/	.	.	.	.	.
.	.	.	.	.	16g#X/	.	16b/	.	.	.	.	.
8E\	.	.	8e\	.	16g#X/	.	16b/	.	.	.	.	.
.	.	.	.	.	16g#X/JJ	.	16b/JJ	.	.	.	.	.
8E\	.	.	8e\	.	16a/LL	.	16cc#/LL	.	.	.	.	.
.	.	.	.	.	16a/	.	16cc#/	.	.	.	.	.
8E\	.	.	8e\	.	16a/	.	16cc#/	.	.	.	.	.
.	.	.	.	.	16a/	.	16cc#/	.	.	.	.	.
8E\	.	.	8e\	.	16a/	.	16cc#/	.	.	.	.	.
.	.	.	.	.	16a/	.	16cc#/	.	.	.	.	.
8EJ\	.	.	8eJ\	.	16a/	.	16cc#/	.	.	.	.	.
.	.	.	.	.	16a/JJ	.	16cc#/JJ	.	.	.	.	.
=44	=44	=44	=44	=44	=44	=44	=44	=44	=44	=44	=44	=44
!	!	!LO:DY:t=f.	!	!LO:DY:rj	!	!	!	!	!	!	!	!
8EL\	.	f	8eL\	f	16b/LL	.	16dd\LL	.	1ryy	1ryy	1ryy	1ryy
.	.	.	.	.	16b/	.	16dd\	.	.	.	.	.
8E\	.	.	8e\	.	16b/	.	16dd\	.	.	.	.	.
.	.	.	.	.	16b/	.	16dd\	.	.	.	.	.
8E\	.	.	8e\	.	16b/	.	16dd\	.	.	.	.	.
.	.	.	.	.	16b/	.	16dd\	.	.	.	.	.
8E\	.	.	8e\	.	16b/	.	16dd\	.	.	.	.	.
.	.	.	.	.	16b/JJ	.	16dd\JJ	.	.	.	.	.
!	!	!	!	!	!	!	!	!LO:DY:t=for	!	!	!	!
8E\	.	.	8e\	.	16cc#/LL	.	16ee\LL	f	.	.	.	.
.	.	.	.	.	16cc#/	.	16ee\	.	.	.	.	.
8E\	.	.	8e\	.	16cc#/	.	16ee\	.	.	.	.	.
.	.	.	.	.	16cc#/	.	16ee\	.	.	.	.	.
8E\	.	.	8e\	.	16cc#/	.	16ee\	.	.	.	.	.
.	.	.	.	.	16cc#/	.	16ee\	.	.	.	.	.
8EJ\	.	.	8eJ\	.	16cc#/	.	16ee\	.	.	.	.	.
.	.	.	.	.	16cc#/JJ	.	16ee\JJ	.	.	.	.	.
=45	=45	=45	=45	=45	=45	=45	=45	=45	=45	=45	=45	=45
8EL\	.	.	8eL\	.	16dd\LL	.	16ff#\LL	.	1ryy	1ryy	1ryy	1ryy
.	.	.	.	.	16dd\	.	16ff#\	.	.	.	.	.
8E\	.	.	8e\	.	16dd\	.	16ff#\	.	.	.	.	.
.	.	.	.	.	16dd\	.	16ff#\	.	.	.	.	.
8E\	.	.	8e\	.	16dd\	.	16ff#\	.	.	.	.	.
.	.	.	.	.	16dd\	.	16ff#\	.	.	.	.	.
8E\	.	.	8e\	.	16dd\	.	16ff#\	.	.	.	.	.
.	.	.	.	.	16dd\JJ	.	16ff#\JJ	.	.	.	.	.
8E\	.	.	8e\	.	16b/LL	.	16gg#X\LL	.	.	.	.	.
.	.	.	.	.	16b/	.	16gg#X\	.	.	.	.	.
8E\	.	.	8e\	.	16b/	.	16gg#X\	.	.	.	.	.
.	.	.	.	.	16b/	.	16gg#X\	.	.	.	.	.
8E\	.	.	8e\	.	16b/	.	16gg#X\	.	.	.	.	.
.	.	.	.	.	16b/	.	16gg#X\	.	.	.	.	.
8EJ\	.	.	8eJ\	.	16b/	.	16gg#X\	.	.	.	.	.
.	.	.	.	.	16b/JJ	.	16gg#X\JJ	.	.	.	.	.
*Xtremolo	*	*	*Xtremolo	*	*Xtremolo	*	*Xtremolo	*	*	*	*	*
=46	=46	=46	=46	=46	=46	=46	=46	=46	=46	=46	=46	=46
4F#\	.	.	4f#\	.	4cc#\	.	4aa\	.	1ryy	1ryy	1ryy	1ryy
4r	.	.	4r	.	4r	.	4r	.	.	.	.	.
2r	.	.	2r	.	4r	p	4r	.	.	.	.	.
.	.	.	.	.	8b\|>	.	8dd#X\|	p	.	.	.	.
.	.	.	.	.	8r	.	8r	.	.	.	.	.
=47	=47	=47	=47	=47	=47	=47	=47	=47	=47	=47	=47	=47
*tremolo	*	*	*tremolo	*	*	*	*	*	*	*	*	*
!	!	!LO:DY:rj	!	!LO:DY:rj	!LO:LB:g=original	!	!	!	!	!	!	!
8AL\	.	p	8aL\	p	(4cc#\	fp	(4ee\	fp	1ryy	1ryy	1ryy	1ryy
8A\	.	.	8a\	.	.	.	.	.	.	.	.	.
8A\	.	.	8a\	.	4dd\)	.	4ff#\)	.	.	.	.	.
8A\	.	.	8a\	.	.	.	.	.	.	.	.	.
8A\	.	.	8a\	.	8b\|>	.	8ddn\|	.	.	.	.	.
8A\	.	.	8a\	.	8r	.	8r	.	.	.	.	.
8A\	.	.	8a\	.	8g#X/|>	.	8b\|	.	.	.	.	.
8AJ\	.	.	8aJ\	.	8r	.	8r	.	.	.	.	.
=48	=48	=48	=48	=48	=48	=48	=48	=48	=48	=48	=48	=48
!	!	!	!	!	!	!	!LO:LB:g=original	!	!	!	!	!
8AL\	.	.	8aL\	.	(4a/	fp	(4cc#\	fp	1ryy	1ryy	1ryy	1ryy
8A\	.	.	8a\	.	.	.	.	.	.	.	.	.
8A\	.	.	8a\	.	4b/)	.	4dd\)	.	.	.	.	.
8A\	.	.	8a\	.	.	.	.	.	.	.	.	.
8A\	.	.	8a\	.	8d/|>	.	8b\|	.	.	.	.	.
8A\	.	.	8a\	.	8r	.	8r	.	.	.	.	.
8A\	.	.	8a\	.	8B/|>	.	8g#X\|	.	.	.	.	.
8AJ\	.	.	8aJ\	.	8r	.	8r	.	.	.	.	.
=49	=49	=49	=49	=49	=49	=49	=49	=49	=49	=49	=49	=49
8AL\	.	.	8aL\	.	4c#/	.	4a/	.	1ryy	1ryy	1ryy	1ryy
8A\	.	.	8a\	.	.	.	.	.	.	.	.	.
8A\	.	.	8a\	.	4r	.	4r	.	.	.	.	.
8A\	.	.	8a\	.	.	.	.	.	.	.	.	.
8A\	.	.	8a\	.	4r	.	4r	.	.	.	.	.
8A\	.	.	8a\	.	.	.	.	.	.	.	.	.
8A\	.	.	8a\	.	8b\|>	.	8dd#X\|	.	.	.	.	.
8AJ\	.	.	8aJ\	.	8r	.	8r	.	.	.	.	.
=50	=50	=50	=50	=50	=50	=50	=50	=50	=50	=50	=50	=50
!LO:LB:g=original	!	!	!	!	!	!	!	!LO:DY:rj	!	!	!	!
8AL\	.	.	8aL\	.	(4cc#/	fp	(4ee\	fp	1ryy	1ryy	1ryy	1ryy
8A\	.	.	8a\	.	.	.	.	.	.	.	.	.
8A\	.	.	8a\	.	4dd/)	.	4ff#\)	.	.	.	.	.
8A\	.	.	8a\	.	.	.	.	.	.	.	.	.
8A\	.	.	8a\	.	8b\|>	.	8ddn\|	.	.	.	.	.
8A\	.	.	8a\	.	8r	.	8r	.	.	.	.	.
8A\	.	.	8a\	.	8g#X/|>	.	8b\|	.	.	.	.	.
8AJ\	.	.	8aJ\	.	8r	.	8r	.	.	.	.	.
=51	=51	=51	=51	=51	=51	=51	=51	=51	=51	=51	=51	=51
!	!	!	!	!	!	!	!	!LO:DY:rj	!	!	!	!
8AL\	.	.	8aL\	.	(4a/	fp	(4cc#\	fp	1ryy	1ryy	1ryy	1ryy
8A\	.	.	8a\	.	.	.	.	.	.	.	.	.
8A\	.	.	8a\	.	4b/)	.	4dd\)	.	.	.	.	.
8A\	.	.	8a\	.	.	.	.	.	.	.	.	.
8A\	.	.	8a\	.	8d/|>	.	8b\|	.	.	.	.	.
8A\	.	.	8a\	.	8r	.	8r	.	.	.	.	.
8A\	.	.	8a\	.	8B/|>	.	8g#X/|>	.	.	.	.	.
8AJ\	.	.	8aJ\	.	8r	.	8r	.	.	.	.	.
=52	=52	=52	=52	=52	=52	=52	=52	=52	=52	=52	=52	=52
*	*	*	*	*	*tremolo	*	*	*	*	*	*	*
!	!	!LO:DY:rj:t=f&colon;	!	!LO:DY:rj:t=f&colon;	!	!LO:DY:rj	!	!LO:DY:rj	!	!	!	!
8AAL\	.	f	8AL\	f	16c#/LL	f	2a/|>	f	1ryy	1ryy	1ryy	1ryy
.	.	.	.	.	16e/	.	.	.	.	.	.	.
8AA\	.	.	8A\	.	16c#/	.	.	.	.	.	.	.
.	.	.	.	.	16e/	.	.	.	.	.	.	.
8AA\	.	.	8A\	.	16c#/	.	.	.	.	.	.	.
.	.	.	.	.	16e/	.	.	.	.	.	.	.
8AA\	.	.	8A\	.	16c#/	.	.	.	.	.	.	.
.	.	.	.	.	16e/JJ	.	.	.	.	.	.	.
!	!	!	!	!	!LO:LB:g=original	!	!	!	!	!	!	!
8AA\	.	.	8A\	.	16c#/LL	.	4cc#\|	.	.	.	.	.
.	.	.	.	.	16e/	.	.	.	.	.	.	.
8AA\	.	.	8A\	.	16c#/	.	.	.	.	.	.	.
.	.	.	.	.	16e/	.	.	.	.	.	.	.
8AA\	.	.	8A\	.	16c#/	.	4ee\|	.	.	.	.	.
.	.	.	.	.	16e/	.	.	.	.	.	.	.
8AAJ\	.	.	8AJ\	.	16c#/	.	.	.	.	.	.	.
.	.	.	.	.	16e/JJ	.	.	.	.	.	.	.
=53	=53	=53	=53	=53	=53	=53	=53	=53	=53	=53	=53	=53
8AAL\	.	.	8AL\	.	16c#/LL	.	[4aa\	.	1ryy	1ryy	1ryy	1ryy
.	.	.	.	.	16e/	.	.	.	.	.	.	.
8AA\	.	.	8A\	.	16c#/	.	.	.	.	.	.	.
.	.	.	.	.	16e/	.	.	.	.	.	.	.
8AA\	.	.	8A\	.	16c#/	.	16aa\LL]	.	.	.	.	.
.	.	.	.	.	16e/	.	16bb\	.	.	.	.	.
8AA\	.	.	8A\	.	16c#/	.	16ccc#\	.	.	.	.	.
.	.	.	.	.	16e/JJ	.	16bb\JJ	.	.	.	.	.
8AA\	.	.	8A\	.	16c#/LL	.	4aa\	.	.	.	.	.
.	.	.	.	.	16e/	.	.	.	.	.	.	.
8AA\	.	.	8A\	.	16c#/	.	.	.	.	.	.	.
.	.	.	.	.	16e/	.	.	.	.	.	.	.
8AA\	.	.	8A\	.	16c#/	.	4r	.	.	.	.	.
.	.	.	.	.	16e/	.	.	.	.	.	.	.
8AAJ\	.	.	8AJ\	.	16c#/	.	.	.	.	.	.	.
.	.	.	.	.	16e/JJ	.	.	.	.	.	.	.
=54	=54	=54	=54	=54	=54	=54	=54	=54	=54	=54	=54	=54
!	!	!	!LO:LB:g=original	!	!	!	!LO:LB:g=original	!	!	!	!	!
8AAL\	.	.	8BL\	.	16d/LL	.	2b/|>	.	1ryy	1ryy	1ryy	1ryy
.	.	.	.	.	16f#/	.	.	.	.	.	.	.
8AA\	.	.	8B\	.	16d/	.	.	.	.	.	.	.
.	.	.	.	.	16f#/	.	.	.	.	.	.	.
8AA\	.	.	8B\	.	16d/	.	.	.	.	.	.	.
.	.	.	.	.	16f#/	.	.	.	.	.	.	.
8AA\	.	.	8B\	.	16d/	.	.	.	.	.	.	.
.	.	.	.	.	16f#/JJ	.	.	.	.	.	.	.
8AA\	.	.	8B\	.	16d/LL	.	4dd\|	.	.	.	.	.
.	.	.	.	.	16f#/	.	.	.	.	.	.	.
8AA\	.	.	8B\	.	16d/	.	.	.	.	.	.	.
.	.	.	.	.	16f#/	.	.	.	.	.	.	.
8AA\	.	.	8B\	.	16d/	.	4ff#\|	.	.	.	.	.
.	.	.	.	.	16f#/	.	.	.	.	.	.	.
8AAJ\	.	.	8BJ\	.	16d/	.	.	.	.	.	.	.
.	.	.	.	.	16f#/JJ	.	.	.	.	.	.	.
=55	=55	=55	=55	=55	=55	=55	=55	=55	=55	=55	=55	=55
8AAL\	.	.	8BL\	.	16d/LL	.	[4bb\	.	1ryy	1ryy	1ryy	1ryy
.	.	.	.	.	16f#/	.	.	.	.	.	.	.
8AA\	.	.	8B\	.	16d/	.	.	.	.	.	.	.
.	.	.	.	.	16f#/	.	.	.	.	.	.	.
8AA\	.	.	8B\	.	16d/	.	16bb\LL]	.	.	.	.	.
.	.	.	.	.	16f#/	.	16ccc#\	.	.	.	.	.
8AA\	.	.	8B\	.	16d/	.	16ddd\	.	.	.	.	.
.	.	.	.	.	16f#/JJ	.	16ccc#\JJ	.	.	.	.	.
8AA\	.	.	8B\	.	16d/LL	.	4bb\	.	.	.	.	.
.	.	.	.	.	16f#/	.	.	.	.	.	.	.
8AA\	.	.	8B\	.	16d/	.	.	.	.	.	.	.
.	.	.	.	.	16f#/	.	.	.	.	.	.	.
8AA\	.	.	8B\	.	16d/	.	4r	.	.	.	.	.
.	.	.	.	.	16f#/	.	.	.	.	.	.	.
8AAJ\	.	.	8BJ\	.	16d/	.	.	.	.	.	.	.
.	.	.	.	.	16f#/JJ	.	.	.	.	.	.	.
*Xtremolo	*	*	*	*	*Xtremolo	*	*	*	*	*	*	*
=56	=56	=56	=56	=56	=56	=56	=56	=56	=56	=56	=56	=56
!	!	!	!	!LO:DY:rj:t=po	!	!LO:DY:rj	!	!LO:DY:t=f&colon;	!	!	!	!
4GG#X/	.	.	8eL\	p	2B/ 2g#X	f	2ee\ 2ddd	f	1ryy	1ryy	1ryy	1ryy
.	.	.	8e\	.	.	.	.	.	.	.	.	.
4r	.	.	8e\	.	.	.	.	.	.	.	.	.
.	.	.	8e\	.	.	.	.	.	.	.	.	.
!	!	!	!	!	!	!LO:DY:rj	!	!	!	!	!	!
2r	.	.	8e\	.	8gg#X\|>	p	8bb\|	p	.	.	.	.
.	.	.	8e\	.	8r	.	8r	.	.	.	.	.
.	.	.	8e\	.	8ff#\	.	8aa\|	.	.	.	.	.
.	.	.	8eJ\	.	8r	.	8r	.	.	.	.	.
=57	=57	=57	=57	=57	=57	=57	=57	=57	=57	=57	=57	=57
!LO:TX:a:t=2	!	!	!	!	!	!	!	!	!	!	!	!
0r	.	.	8eL\	.	8ee\|>	.	8gg#X\|	.	1ryy	1ryy	1ryy	1ryy
.	.	.	8e\	.	8r	.	8r	.	.	.	.	.
.	.	.	8e\	.	8dd\|>	.	8ff#\|	.	.	.	.	.
.	.	.	8e\	.	8r	.	8r	.	.	.	.	.
.	.	.	8e\	.	8cc#\|>	.	8ee\|	.	.	.	.	.
.	.	.	8e\	.	8r	.	8r	.	.	.	.	.
.	.	.	8e\	.	8b\|>	.	8dd\|	.	.	.	.	.
.	.	.	8eJ\	.	8r	.	8r	.	.	.	.	.
=58	=58	=58	=58	=58	=58	=58	=58	=58	=58	=58	=58	=58
!	!	!	!	!	!LO:LB:g=original	!	!	!	!	!	!	!
.	.	.	8eL\	.	4a/|>	.	4cc#\|	.	1ryy	1ryy	1ryy	1ryy
.	.	.	8e\	.	.	.	.	.	.	.	.	.
.	.	.	8e\	.	4r	.	4r	.	.	.	.	.
.	.	.	8e\	.	.	.	.	.	.	.	.	.
.	.	.	8e\	.	4g#X/|>	.	4b\|	.	.	.	.	.
.	.	.	8e\	.	.	.	.	.	.	.	.	.
.	.	.	8e\	.	4r	.	4r	.	.	.	.	.
.	.	.	8eJ\	.	.	.	.	.	.	.	.	.
=59	=59	=59	=59	=59	=59	=59	=59	=59	=59	=59	=59	=59
*tremolo	*	*	*	*	*	*	*	*	*	*	*	*
!	!	!	!	!LO:DY:rj	!	!LO:DY:a:rj	!	!LO:DY:rj:t=po	!	!	!	!
8AL\	.	pp	8aL\	pp	[4c#/	p	2.a/	p	1ryy	1ryy	1ryy	1ryy
8A\	.	.	8a\	.	.	.	.	.	.	.	.	.
8A\	.	.	8a\	.	16c#/LL]	.	.	.	.	.	.	.
.	.	.	.	.	16d/	.	.	.	.	.	.	.
8A\	.	.	8a\	.	16e/	.	.	.	.	.	.	.
.	.	.	.	.	16d/JJ	.	.	.	.	.	.	.
8A\	.	.	8a\	.	4c#/	.	.	.	.	.	.	.
8A\	.	.	8a\	.	.	.	.	.	.	.	.	.
8A\	.	.	8a\	.	4r	.	4cc#/	.	.	.	.	.
8AJ\	.	.	8aJ\	.	.	.	.	.	.	.	.	.
=60	=60	=60	=60	=60	=60	=60	=60	=60	=60	=60	=60	=60
8AL\	.	.	8aL\	.	2.d/	.	[4b\	.	1ryy	1ryy	1ryy	1ryy
8A\	.	.	8a\	.	.	.	.	.	.	.	.	.
8A\	.	.	8a\	.	.	.	16b\LL]	.	.	.	.	.
.	.	.	.	.	.	.	16cc#\	.	.	.	.	.
8A\	.	.	8a\	.	.	.	16dd\	.	.	.	.	.
.	.	.	.	.	.	.	16cc#\JJ	.	.	.	.	.
8A\	.	.	8a\	.	.	.	4b\	.	.	.	.	.
8A\	.	.	8a\	.	.	.	.	.	.	.	.	.
8A\	.	.	8a\	.	4f#/	.	4r	.	.	.	.	.
8AJ\	.	.	8aJ\	.	.	.	.	.	.	.	.	.
=61	=61	=61	=61	=61	=61	=61	=61	=61	=61	=61	=61	=61
!	!	!	!	!	!	!	!LO:LB:g=original	!	!	!	!	!
8GnL\	.	.	8aL\	.	[4e/	.	2.cc#\	.	1ryy	1ryy	1ryy	1ryy
8Gn\	.	.	8a\	.	.	.	.	.	.	.	.	.
8Gn\	.	.	8a\	.	16e/LL]	.	.	.	.	.	.	.
.	.	.	.	.	16f#/	.	.	.	.	.	.	.
8Gn\	.	.	8a\	.	16g/	.	.	.	.	.	.	.
.	.	.	.	.	16f#/JJ	.	.	.	.	.	.	.
8Gn\	.	.	8a\	.	4e/	.	.	.	.	.	.	.
8Gn\	.	.	8a\	.	.	.	.	.	.	.	.	.
8Gn\	.	.	8a\	.	4r	.	4ee\	.	.	.	.	.
8GnJ\	.	.	8aJ\	.	.	.	.	.	.	.	.	.
=62	=62	=62	=62	=62	=62	=62	=62	=62	=62	=62	=62	=62
8GL\	.	.	8aL\	.	2.f#/	.	[4dd\	.	1ryy	1ryy	1ryy	1ryy
8G\	.	.	8a\	.	.	.	.	.	.	.	.	.
8G\	.	.	8a\	.	.	.	16dd\LL]	.	.	.	.	.
.	.	.	.	.	.	.	16ee\	.	.	.	.	.
8G\	.	.	8a\	.	.	.	16ff#\	.	.	.	.	.
.	.	.	.	.	.	.	16ee\JJ	.	.	.	.	.
8G\	.	.	8a\	.	.	.	4dd\	.	.	.	.	.
8G\	.	.	8a\	.	.	.	.	.	.	.	.	.
8G\	.	.	8a\	.	4a/	.	4r	.	.	.	.	.
8GJ\	.	.	8aJ\	.	.	.	.	.	.	.	.	.
=63	=63	=63	=63	=63	=63	=63	=63	=63	=63	=63	=63	=63
!LO:LB:g=original	!	!	!	!	!	!	!	!	!	!	!	!
8C#L\	.	.	8aL\	.	[4g/	.	2.ee\	.	1ryy	1ryy	1ryy	1ryy
8C#\	.	.	8a\	.	.	.	.	.	.	.	.	.
8C#\	.	.	8a\	.	16g/LL]	.	.	.	.	.	.	.
.	.	.	.	.	16a/	.	.	.	.	.	.	.
8C#\	.	.	8a\	.	16b/	.	.	.	.	.	.	.
.	.	.	.	.	16a/JJ	.	.	.	.	.	.	.
8C#\	.	.	8a\	.	4g/	.	.	.	.	.	.	.
8C#\	.	.	8a\	.	.	.	.	.	.	.	.	.
8C#\	.	.	8a\	.	4r	.	4gg\	.	.	.	.	.
8C#J\	.	.	8aJ\	.	.	.	.	.	.	.	.	.
=64	=64	=64	=64	=64	=64	=64	=64	=64	=64	=64	=64	=64
8DL\	.	.	8aL\	.	2.a/	.	[4ff#\	.	1ryy	1ryy	1ryy	1ryy
8D\	.	.	8a\	.	.	.	.	.	.	.	.	.
8D\	.	.	8a\	.	.	.	16ff#\LL]	.	.	.	.	.
.	.	.	.	.	.	.	16gg\	.	.	.	.	.
8D\	.	.	8a\	.	.	.	16aa\	.	.	.	.	.
.	.	.	.	.	.	.	16gg\JJ	.	.	.	.	.
8D\	.	.	8a\	.	.	.	4ff#\	.	.	.	.	.
8D\	.	.	8a\	.	.	.	.	.	.	.	.	.
8D\	.	.	8a\	.	4ccn/	.	4r	.	.	.	.	.
8DJ\	.	.	8aJ\	.	.	.	.	.	.	.	.	.
=65	=65	=65	=65	=65	=65	=65	=65	=65	=65	=65	=65	=65
!	!	!	!	!	!LO:LB:g=original	!	!	!	!	!	!	!
8DL\	.	.	8gL\	.	[4b\	.	2.gg\	.	1ryy	1ryy	1ryy	1ryy
8D\	.	.	8g\	.	.	.	.	.	.	.	.	.
8D\	.	.	8g\	.	16b\LL]	.	.	.	.	.	.	.
.	.	.	.	.	16cc#\	.	.	.	.	.	.	.
8D\	.	.	8g\	.	16dd\	.	.	.	.	.	.	.
.	.	.	.	.	16cc#\JJ	.	.	.	.	.	.	.
8D\	.	.	8g\	.	4b\	.	.	.	.	.	.	.
8D\	.	.	8g\	.	.	.	.	.	.	.	.	.
8D\	.	.	8g\	.	4r	.	4bb\	.	.	.	.	.
8DJ\	.	.	8gJ\	.	.	.	.	.	.	.	.	.
=66	=66	=66	=66	=66	=66	=66	=66	=66	=66	=66	=66	=66
!	!	!	!LO:LB:g=original	!	!	!	!	!	!	!	!	!
8DL\	.	.	8f#L\	.	2.ccn\	.	[4aa\	.	1ryy	1ryy	1ryy	1ryy
8D\	.	.	8f#\	.	.	.	.	.	.	.	.	.
8D\	.	.	8f#\	.	.	.	16aa\LL]	.	.	.	.	.
.	.	.	.	.	.	.	16bb\	.	.	.	.	.
8D\	.	.	8f#\	.	.	.	16cccn\	.	.	.	.	.
.	.	.	.	.	.	.	16bb\JJ	.	.	.	.	.
8D\	.	.	8f#\	.	.	.	4aa\	.	.	.	.	.
8D\	.	.	8f#\	.	.	.	.	.	.	.	.	.
8D\	.	.	8f#\	.	4ee\	.	4r	.	.	.	.	.
8DJ\	.	.	8f#J\	.	.	.	.	.	.	.	.	.
=67	=67	=67	=67	=67	=67	=67	=67	=67	=67	=67	=67	=67
*	*	*	*	*	*tremolo	*	*	*	*	*	*	*
!	!	!	!	!LO:DY:rj	!	!LO:DY:rj	!	!LO:DY:rj	!	!	!	!
8GL\	.	fp	16BLL\	fp	16dLL\	f	2d\ 2dd 2bb	f	1ryy	1ryy	1ryy	1ryy
.	.	.	16B\	.	16d\	.	.	.	.	.	.	.
8G\	.	.	16B\	.	16d\	.	.	.	.	.	.	.
.	.	.	16B\	.	16d\	.	.	.	.	.	.	.
8G\	.	.	16B\	.	16d\	.	.	.	.	.	.	.
.	.	.	16B\	.	16d\	.	.	.	.	.	.	.
8G\	.	.	16B\	.	16d\	.	.	.	.	.	.	.
.	.	.	16B\	.	16d\	.	.	.	.	.	.	.
8G\	.	.	16B\	.	16d\	.	8ddd|\	p	.	.	.	.
.	.	.	16B\	.	16d\	.	.	.	.	.	.	.
8G\	.	.	16B\	.	16d\	.	8r	.	.	.	.	.
.	.	.	16B\	.	16d\	.	.	.	.	.	.	.
8G\	.	.	16B\	.	16d\	.	8bb\|	.	.	.	.	.
.	.	.	16B\	.	16d\	.	.	.	.	.	.	.
8GJ\	.	.	16B\	.	16d\	.	8r	.	.	.	.	.
.	.	.	16BJJ\	.	16dJJ\	.	.	.	.	.	.	.
=68	=68	=68	=68	=68	=68	=68	=68	=68	=68	=68	=68	=68
!	!	!	!	!	!	!	!LO:LB:g=original	!	!	!	!	!
8GL\	.	.	16BLL\	.	16dLL\	.	8gg\|	.	1ryy	1ryy	1ryy	1ryy
.	.	.	16B\	.	16d\	.	.	.	.	.	.	.
8G\	.	.	16B\	.	16d\	.	8r	.	.	.	.	.
.	.	.	16B\	.	16d\	.	.	.	.	.	.	.
8G\	.	.	16B\	.	16d\	.	8dd\|	.	.	.	.	.
.	.	.	16B\	.	16d\	.	.	.	.	.	.	.
8G\	.	.	16B\	.	16d\	.	8r	.	.	.	.	.
.	.	.	16B\	.	16d\	.	.	.	.	.	.	.
8G\	.	.	16B\	.	16d\	.	8b\|	.	.	.	.	.
.	.	.	16B\	.	16d\	.	.	.	.	.	.	.
8G\	.	.	16B\	.	16d\	.	8r	.	.	.	.	.
.	.	.	16B\	.	16d\	.	.	.	.	.	.	.
8G\	.	.	16B\	.	16d\	.	8g/|>	.	.	.	.	.
.	.	.	16B\	.	16d\	.	.	.	.	.	.	.
8GJ\	.	.	16B\	.	16d\	.	8r	.	.	.	.	.
.	.	.	16BJJ\	.	16dJJ\	.	.	.	.	.	.	.
=69	=69	=69	=69	=69	=69	=69	=69	=69	=69	=69	=69	=69
!	!	!LO:DY:rj	!	!LO:DY:rj	!	!LO:DY:rj	!	!LO:DY:rj:t=f&colon;	!	!	!	!
8F#L\	.	fp	16ALL\	fp	16dLL\	f	2d\ 2dd 2aa	f	1ryy	1ryy	1ryy	1ryy
.	.	.	16A\	.	16d\	.	.	.	.	.	.	.
8F#\	.	.	16A\	.	16d\	.	.	.	.	.	.	.
.	.	.	16A\	.	16d\	.	.	.	.	.	.	.
8F#\	.	.	16A\	.	16d\	.	.	.	.	.	.	.
.	.	.	16A\	.	16d\	.	.	.	.	.	.	.
8F#\	.	.	16A\	.	16d\	.	.	.	.	.	.	.
.	.	.	16A\	.	16d\	.	.	.	.	.	.	.
8F#\	.	.	16A\	.	16d\	.	8ddd\|	.	.	.	.	.
.	.	.	16A\	.	16d\	.	.	.	.	.	.	.
8F#\	.	.	16A\	.	16d\	.	8r	.	.	.	.	.
.	.	.	16A\	.	16d\	.	.	.	.	.	.	.
8F#\	.	.	16A\	.	16d\	.	8aa\|	.	.	.	.	.
.	.	.	16A\	.	16d\	.	.	.	.	.	.	.
8F#J\	.	.	16A\	.	16d\	.	8r	.	.	.	.	.
.	.	.	16AJJ\	.	16dJJ\	.	.	.	.	.	.	.
=70	=70	=70	=70	=70	=70	=70	=70	=70	=70	=70	=70	=70
8F#L\	.	.	16ALL\	.	16dLL\	.	8ff#\|	.	1ryy	1ryy	1ryy	1ryy
.	.	.	16A\	.	16d\	.	.	.	.	.	.	.
8F#\	.	.	16A\	.	16d\	.	8r	.	.	.	.	.
.	.	.	16A\	.	16d\	.	.	.	.	.	.	.
8F#\	.	.	16A\	.	16d\	.	8dd\|	.	.	.	.	.
.	.	.	16A\	.	16d\	.	.	.	.	.	.	.
8F#\	.	.	16A\	.	16d\	.	8r	.	.	.	.	.
.	.	.	16A\	.	16d\	.	.	.	.	.	.	.
8F#\	.	.	16A\	.	16d\	.	8a/|>	.	.	.	.	.
.	.	.	16A\	.	16d\	.	.	.	.	.	.	.
8F#\	.	.	16A\	.	16d\	.	8r	.	.	.	.	.
.	.	.	16A\	.	16d\	.	.	.	.	.	.	.
8F#\	.	.	16A\	.	16d\	.	8f#/|>	.	.	.	.	.
.	.	.	16A\	.	16d\	.	.	.	.	.	.	.
8F#J\	.	.	16A\	.	16d\	.	8r	.	.	.	.	.
.	.	.	16AJJ\	.	16dJJ\	.	.	.	.	.	.	.
=71	=71	=71	=71	=71	=71	=71	=71	=71	=71	=71	=71	=71
!	!	!LO:DY:rj	!	!LO:DY:rj	!	!LO:DY:rj	!	!LO:DY:rj:t=f.	!	!	!	!
8GL\	.	f	16BLL\	fp	16dLL\	fp	2d\ 2dd 2bb	f	1ryy	1ryy	1ryy	1ryy
.	.	.	16B\	.	16d\	.	.	.	.	.	.	.
8G\	.	.	16B\	.	16d\	.	.	.	.	.	.	.
.	.	.	16B\	.	16d\	.	.	.	.	.	.	.
8G\	.	.	16B\	.	16d\	.	.	.	.	.	.	.
.	.	.	16B\	.	16d\	.	.	.	.	.	.	.
8G\	.	.	16B\	.	16d\	.	.	.	.	.	.	.
.	.	.	16B\	.	16d\	.	.	.	.	.	.	.
8G\	.	.	16B\	.	16d\	.	8ddd\|	p	.	.	.	.
.	.	.	16B\	.	16d\	.	.	.	.	.	.	.
8G\	.	.	16B\	.	16d\	.	8r	.	.	.	.	.
.	.	.	16B\	.	16d\	.	.	.	.	.	.	.
8G\	.	.	16B\	.	16d\	.	8bb\|	.	.	.	.	.
.	.	.	16B\	.	16d\	.	.	.	.	.	.	.
8GJ\	.	.	16B\	.	16d\	.	8r	.	.	.	.	.
.	.	.	16BJJ\	.	16dJJ\	.	.	.	.	.	.	.
=72	=72	=72	=72	=72	=72	=72	=72	=72	=72	=72	=72	=72
8GL\	.	.	16BLL\	.	16dLL\	.	8gg\|	.	1ryy	1ryy	1ryy	1ryy
.	.	.	16B\	.	16d\	.	.	.	.	.	.	.
8G\	.	.	16B\	.	16d\	.	8r	.	.	.	.	.
.	.	.	16B\	.	16d\	.	.	.	.	.	.	.
8G\	.	.	16B\	.	16d\	.	8dd\|	.	.	.	.	.
.	.	.	16B\	.	16d\	.	.	.	.	.	.	.
8G\	.	.	16B\	.	16d\	.	8r	.	.	.	.	.
.	.	.	16B\	.	16d\	.	.	.	.	.	.	.
8G\	.	.	16B\	.	16d\	.	8b\|	.	.	.	.	.
.	.	.	16B\	.	16d\	.	.	.	.	.	.	.
8G\	.	.	16B\	.	16d\	.	8r	.	.	.	.	.
.	.	.	16B\	.	16d\	.	.	.	.	.	.	.
8G\	.	.	16B\	.	16d\	.	8g\|>	.	.	.	.	.
.	.	.	16B\	.	16d\	.	.	.	.	.	.	.
8GJ\	.	.	16B\	.	16d\	.	8r	.	.	.	.	.
.	.	.	16BJJ\	.	16dJJ\	.	.	.	.	.	.	.
=73	=73	=73	=73	=73	=73	=73	=73	=73	=73	=73	=73	=73
!	!	!	!	!LO:DY:rj:t=fp&colon;	!	!LO:DY:rj	!LO:LB:g=original	!LO:DY:rj	!	!	!	!
8F#L\	.	fp	16ALL\	fp	16dLL\	fp	2d\ 2dd 2aa	f	1ryy	1ryy	1ryy	1ryy
.	.	.	16A\	.	16d\	.	.	.	.	.	.	.
8F#\	.	.	16A\	.	16d\	.	.	.	.	.	.	.
.	.	.	16A\	.	16d\	.	.	.	.	.	.	.
8F#\	.	.	16A\	.	16d\	.	.	.	.	.	.	.
.	.	.	16A\	.	16d\	.	.	.	.	.	.	.
8F#\	.	.	16A\	.	16d\	.	.	.	.	.	.	.
.	.	.	16A\	.	16d\	.	.	.	.	.	.	.
!	!	!	!	!	!	!	!	!LO:DY:rj	!	!	!	!
8F#\	.	.	16A\	.	16d\	.	8ddd\|	p	.	.	.	.
.	.	.	16A\	.	16d\	.	.	.	.	.	.	.
8F#\	.	.	16A\	.	16d\	.	8r	.	.	.	.	.
.	.	.	16A\	.	16d\	.	.	.	.	.	.	.
8F#\	.	.	16A\	.	16d\	.	8aa\|	.	.	.	.	.
.	.	.	16A\	.	16d\	.	.	.	.	.	.	.
8F#J\	.	.	16A\	.	16d\	.	8r	.	.	.	.	.
.	.	.	16AJJ\	.	16dJJ\	.	.	.	.	.	.	.
=74	=74	=74	=74	=74	=74	=74	=74	=74	=74	=74	=74	=74
8F#L\	.	.	16ALL\	.	16dLL\	.	8ff#\|	.	1ryy	1ryy	1ryy	1ryy
.	.	.	16A\	.	16d\	.	.	.	.	.	.	.
8F#\	.	.	16A\	.	16d\	.	8r	.	.	.	.	.
.	.	.	16A\	.	16d\	.	.	.	.	.	.	.
8F#\	.	.	16A\	.	16d\	.	8dd\|	.	.	.	.	.
.	.	.	16A\	.	16d\	.	.	.	.	.	.	.
8F#\	.	.	16A\	.	16d\	.	8r	.	.	.	.	.
.	.	.	16A\	.	16d\	.	.	.	.	.	.	.
8F#\	.	.	16A\	.	16d\	.	8a/	.	.	.	.	.
.	.	.	16A\	.	16d\	.	.	.	.	.	.	.
8F#\	.	.	16A\	.	16d\	.	8r	.	.	.	.	.
.	.	.	16A\	.	16d\	.	.	.	.	.	.	.
8F#\	.	.	16A\	.	16d\	.	8f#/	.	.	.	.	.
.	.	.	16A\	.	16d\	.	.	.	.	.	.	.
8F#J\	.	.	16A\	.	16d\	.	8r	.	.	.	.	.
.	.	.	16AJJ\	.	16dJJ\	.	.	.	.	.	.	.
*	*	*	*	*	*Xtremolo	*	*	*	*	*	*	*
=75	=75	=75	=75	=75	=75	=75	=75	=75	=75	=75	=75	=75
!LO:LB:g=original	!	!LO:DY:rj	!LO:LB:g=original	!	!	!LO:DY:rj	!	!LO:DY:rj:t=f.	!	!	!	!
8C#L\	.	fp	16aLL\	fp	2A/ 2e	f	2a\ 2gg	f	1ryy	1ryy	1ryy	1ryy
.	.	.	16a\	.	.	.	.	.	.	.	.	.
8C#\	.	.	16a\	.	.	.	.	.	.	.	.	.
.	.	.	16a\	.	.	.	.	.	.	.	.	.
8C#\	.	.	16a\	.	.	.	.	.	.	.	.	.
.	.	.	16a\	.	.	.	.	.	.	.	.	.
8C#\	.	.	16a\	.	.	.	.	.	.	.	.	.
.	.	.	16a\	.	.	.	.	.	.	.	.	.
!	!	!	!	!	!LO:LB:g=original	!LO:DY:rj	!	!LO:DY:rj	!	!	!	!
8C#\	.	.	16a\	.	8cc#\|>	p	8aa\|	p	.	.	.	.
.	.	.	16a\	.	.	.	.	.	.	.	.	.
8C#\	.	.	16a\	.	8r	.	8r	.	.	.	.	.
.	.	.	16a\	.	.	.	.	.	.	.	.	.
8C#\	.	.	16a\	.	8ee\|>	.	8gg\|	.	.	.	.	.
.	.	.	16a\	.	.	.	.	.	.	.	.	.
8C#J\	.	.	16a\	.	8r	.	8r	.	.	.	.	.
.	.	.	16aJJ\	.	.	.	.	.	.	.	.	.
=76	=76	=76	=76	=76	=76	=76	=76	=76	=76	=76	=76	=76
8D\L	.	.	16A/LL	.	8dd\|>	.	8ff#\|	.	1ryy	1ryy	1ryy	1ryy
.	.	.	16A/	.	.	.	.	.	.	.	.	.
8D\	.	.	16A/	.	8r	.	8r	.	.	.	.	.
.	.	.	16A/	.	.	.	.	.	.	.	.	.
8D\	.	.	16A/	.	8ff#\|>	.	8aa\|	.	.	.	.	.
.	.	.	16A/	.	.	.	.	.	.	.	.	.
8D\J	.	.	16A/	.	8r	.	8r	.	.	.	.	.
.	.	.	16A/JJ	.	.	.	.	.	.	.	.	.
8GG#X/L	.	.	16B/LL	.	8ff#\|>	.	8ddd\|	.	.	.	.	.
.	.	.	16B/	.	.	.	.	.	.	.	.	.
8GG#X/	.	.	16B/	.	8r	.	8r	.	.	.	.	.
.	.	.	16B/	.	.	.	.	.	.	.	.	.
8GG#X/	.	.	16B/	.	8dd\	.	8ff#\	.	.	.	.	.
.	.	.	16B/	.	.	.	.	.	.	.	.	.
8GG#X/J	.	.	16B/	.	8r	.	8r	.	.	.	.	.
.	.	.	16B/JJ	.	.	.	.	.	.	.	.	.
=77	=77	=77	=77	=77	=77	=77	=77	=77	=77	=77	=77	=77
!	!	!LO:DY:rj	!	!LO:DY:rj	!	!LO:DY:rj	!	!LO:DY:rj	!	!	!	!
8AA/L	.	fp	16aLL\	fp	2e/ 2cc#	f	2a\ 2gg	f	1ryy	1ryy	1ryy	1ryy
.	.	.	16a\	.	.	.	.	.	.	.	.	.
8AA/	.	.	16a\	.	.	.	.	.	.	.	.	.
.	.	.	16a\	.	.	.	.	.	.	.	.	.
8AA/	.	.	16a\	.	.	.	.	.	.	.	.	.
.	.	.	16a\	.	.	.	.	.	.	.	.	.
8AA/J	.	.	16a\	.	.	.	.	.	.	.	.	.
.	.	.	16a\	.	.	.	.	.	.	.	.	.
!	!	!	!	!	!	!LO:DY:rj	!	!LO:DY:rj	!	!	!	!
8C#/L	.	.	16a\	.	8cc#\|>	p	8aa\|	p	.	.	.	.
.	.	.	16a\	.	.	.	.	.	.	.	.	.
8C#/	.	.	16a\	.	8r	.	8r	.	.	.	.	.
.	.	.	16a\	.	.	.	.	.	.	.	.	.
8C#/	.	.	16a\	.	8ee\|>	.	8gg\|	.	.	.	.	.
.	.	.	16a\	.	.	.	.	.	.	.	.	.
8C#/J	.	.	16a\	.	8r	.	8r	.	.	.	.	.
.	.	.	16aJJ\	.	.	.	.	.	.	.	.	.
=78	=78	=78	=78	=78	=78	=78	=78	=78	=78	=78	=78	=78
8D\L	.	.	16A/LL	.	8dd\|>	.	8ff#\|	.	1ryy	1ryy	1ryy	1ryy
.	.	.	16A/	.	.	.	.	.	.	.	.	.
8D\	.	.	16A/	.	8r	.	8r	.	.	.	.	.
.	.	.	16A/	.	.	.	.	.	.	.	.	.
8D\	.	.	16A/	.	8ff#\|>	.	8aa\|	.	.	.	.	.
.	.	.	16A/	.	.	.	.	.	.	.	.	.
8D\J	.	.	16A/	.	8r	.	8r	.	.	.	.	.
.	.	.	16A/JJ	.	.	.	.	.	.	.	.	.
8GG#X/L	.	.	16B/LL	.	8ff#\|>	.	8ddd\|	.	.	.	.	.
.	.	.	16B/	.	.	.	.	.	.	.	.	.
8GG#X/	.	.	16B/	.	8r	.	8r	.	.	.	.	.
.	.	.	16B/	.	.	.	.	.	.	.	.	.
8GG#X/	.	.	16B/	.	8dd\|>	.	8ff#\	.	.	.	.	.
.	.	.	16B/	.	.	.	.	.	.	.	.	.
8GG#X/J	.	.	16B/	.	8r	.	8r	.	.	.	.	.
.	.	.	16B/JJ	.	.	.	.	.	.	.	.	.
=79	=79	=79	=79	=79	=79	=79	=79	=79	=79	=79	=79	=79
!	!	!	!	!	!	!	!LO:LB:g=original	!	!	!	!	!
8AAL\	.	.	16ALL\	.	8cc#\|>	.	8ee|\	.	1ryy	1ryy	1ryy	1ryy
.	.	.	16A\	.	.	.	.	.	.	.	.	.
8AA\	.	.	16A\	.	8r	.	8r	.	.	.	.	.
.	.	.	16A\	.	.	.	.	.	.	.	.	.
8AA\	.	.	16A\	.	8a\|>	.	8a|>/	.	.	.	.	.
.	.	.	16A\	.	.	.	.	.	.	.	.	.
8AA\	.	.	16A\	.	8r	.	8r	.	.	.	.	.
.	.	.	16A\	.	.	.	.	.	.	.	.	.
!	!	!	!	!	!	!LO:DY:t=po	!	!LO:DY:t=po.	!	!	!	!
8AA\	.	.	16A\	.	2r	p	2r	p	.	.	.	.
.	.	.	16A\	.	.	.	.	.	.	.	.	.
8AA\	.	.	16A\	.	.	.	.	.	.	.	.	.
.	.	.	16A\	.	.	.	.	.	.	.	.	.
8AA\	.	.	16A\	.	.	.	.	.	.	.	.	.
.	.	.	16A\	.	.	.	.	.	.	.	.	.
8AAJ\	.	.	16A\	.	.	.	.	.	.	.	.	.
.	.	.	16AJJ\	.	.	.	.	.	.	.	.	.
*Xtremolo	*	*	*Xtremolo	*	*	*	*	*	*	*	*	*
=80	=80	=80	=80	=80	=80	=80	=80	=80	=80	=80	=80	=80
*	*	*	*	*	*	*	*^	*	*	*	*	*
*	*	*	*	*	*	*	*cue	*	*	*	*	*	*
4AA/	.	.	4A/	.	4r	.	4r	4ryy	.	1ryy	1ryy	1ryy	1ryy
4r	.	.	4r	.	4c#|</	.	4ee/	4e/	.	.	.	.	.
2r	.	.	2r	.	(4e/	.	4gg/	(4g/	.	.	.	.	.
.	.	.	.	.	4d/)	.	4ff#/	4f#/)	.	.	.	.	.
=81	=81	=81	=81	=81	=81	=81	=81	=81	=81	=81	=81	=81	=81
!	!	!	!	!	!LO:LB:g=original	!	!	!	!	!	!	!	!
4AA/	.	.	4A/	.	4r	.	4r	4ryy	.	1ryy	1ryy	1ryy	1ryy
4r	.	.	4r	.	4d|</	.	4ff#/	4f#/	.	.	.	.	.
2r	.	.	2r	.	(4f#/	.	4aa/	(4a/	.	.	.	.	.
.	.	.	.	.	4e/)	.	4gg/	4g/)	.	.	.	.	.
=82	=82	=82	=82	=82	=82	=82	=82	=82	=82	=82	=82	=82	=82
4AA/	.	.	4A/	.	4r	.	4r	4ryy	.	1ryy	1ryy	1ryy	1ryy
4r	.	.	4r	.	4e|>/	.	4gg/	4g/	.	.	.	.	.
2r	.	.	2r	.	(4g/	.	4bb/	(4b/	.	.	.	.	.
.	.	.	.	.	4f#/)	.	4aa/	4a/)	.	.	.	.	.
=83	=83	=83	=83	=83	=83	=83	=83	=83	=83	=83	=83	=83	=83
!	!	!	!LO:LB:g=original	!	!	!	!	!	!	!	!	!	!
4r	.	.	4r	.	4.f#/	.	4.aa/	4.a/	fp	1ryy	1ryy	1ryy	1ryy
4C#/	.	.	4A/	.	.	f	.	.	.	.	.	.	.
.	.	.	.	.	8e/	.	8gg/	8g/	.	.	.	.	.
4D/	.	.	4d\	.	4d/	.	4ff#/	4f#/	.	.	.	.	.
4DD/	.	.	4D/	.	4r	.	4r	4ryy	.	.	.	.	.
=84	=84	=84	=84	=84	=84	=84	=84	=84	=84	=84	=84	=84	=84
!LO:LB:g=original	!	!	!	!	!	!	!	!	!	!	!	!	!
4AA/	.	.	4A/	.	4r	.	4r	4ryy	.	1ryy	1ryy	1ryy	1ryy
4r	.	.	4r	.	4c#|</	.	4ee/	4e/	.	.	.	.	.
2r	.	.	2r	.	(4e/	.	4gg/	(4g/	.	.	.	.	.
.	.	.	.	.	4d/)	.	4ff#/	4f#/)	.	.	.	.	.
=85	=85	=85	=85	=85	=85	=85	=85	=85	=85	=85	=85	=85	=85
4AA/	.	.	4A/	.	4r	.	4r	4ryy	.	1ryy	1ryy	1ryy	1ryy
4r	.	.	4r	.	4d|</	.	4ff#/	4f#/	.	.	.	.	.
2r	.	.	2r	.	(4f#/	.	4aa/	(4a/	.	.	.	.	.
.	.	.	.	.	4e/)	.	4gg/	4g/)	.	.	.	.	.
=86	=86	=86	=86	=86	=86	=86	=86	=86	=86	=86	=86	=86	=86
!	!	!	!	!	!	!	!LO:LB:g=original	!	!	!	!	!	!
4AA/	.	.	4A/	.	4r	.	4r	4ryy	.	1ryy	1ryy	1ryy	1ryy
4r	.	.	4r	.	4e|</	.	4gg/	4g/	.	.	.	.	.
2r	.	.	2r	.	(4g/	.	4bb/	(4b/	.	.	.	.	.
.	.	.	.	.	4f#/)	.	4aa/	4a/)	.	.	.	.	.
=87	=87	=87	=87	=87	=87	=87	=87	=87	=87	=87	=87	=87	=87
!	!	!	!	!	!	!	!	!	!LO:DY:rj	!	!	!	!
4r	.	.	4r	.	4.f#/	fp	4.aa/	4.a/	fp	1ryy	1ryy	1ryy	1ryy
4C#/	.	.	4A/	.	.	.	.	.	.	.	.	.	.
.	.	.	.	.	8e/	.	8gg/	8g/	.	.	.	.	.
4D/	.	.	4d\	.	4d/	.	4ff#/	4f#/	.	.	.	.	.
4DD/	.	.	4D/	.	4r	.	4r	4ryy	.	.	.	.	.
=88	=88	=88	=88	=88	=88	=88	=88	=88	=88	=88	=88	=88	=88
*	*	*	*	*	*^	*	*	*	*	*	*	*	*
*	*	*	*	*	*cue	*	*	*	*	*	*	*	*	*
!	!	!	!	!	!LO:LB:g=original	!	!	!	!	!	!	!	!	!
4r	.	.	4r	.	4.ffn\	1r	.	4.aa/	1r	.	1ryy	1ryy	1ryy	1ryy
4C#/	.	.	4A/	.	.	.	.	.	.	.	.	.	.	.
.	.	.	.	.	8ee/	.	.	8gg/	.	.	.	.	.	.
4D/	.	.	4d\	.	4dd/	.	.	4ffn/	.	.	.	.	.	.
4DD/	.	.	4D/	.	4rg	.	.	4r	.	.	.	.	.	.
=89	=89	=89	=89	=89	=89	=89	=89	=89	=89	=89	=89	=89	=89	=89
4r	.	.	4r	.	4.ffn/	1r	.	4.aa/	1r	.	1ryy	1ryy	1ryy	1ryy
4C#/	.	.	4A/	.	.	.	.	.	.	.	.	.	.	.
.	.	.	.	.	8ee/	.	.	8gg/	.	.	.	.	.	.
4D/	.	.	4d\	.	4dd/	.	.	4ffn/	.	.	.	.	.	.
4DD/	.	.	4D/	.	4r	.	.	4r	.	.	.	.	.	.
=90	=90	=90	=90	=90	=90	=90	=90	=90	=90	=90	=90	=90	=90	=90
!	!	!	!LO:LB:g=original	!	!	!	!	!	!	!	!	!	!	!
4AA/	.	.	4A/	.	(4dd/	1r	.	4ffn/	2r	.	1ryy	1ryy	1ryy	1ryy
4AA/	.	.	4A/	.	4cc#/)	.	.	4ee/	.	.	.	.	.	.
2r	.	.	2r	.	2r	.	.	2r	4r	.	.	.	.	.
.	.	.	.	.	.	.	.	.	4r	.	.	.	.	.
*	*	*	*	*	*	*	*	*Xcue	*	*	*	*	*	*
*	*	*	*	*	*v	*v	*	*	*	*	*	*	*	*
*	*	*	*	*	*	*	*v	*v	*	*	*	*	*
=91	=91	=91	=91	=91	=91	=91	=91	=91	=91	=91	=91	=91
*	*	*	*	*	*Xcue	*	*tremolo	*	*	*	*	*
*	*	*	*	*	*tremolo	*	*	*	*	*	*	*
!	!	!	!	!	!LO:TX:b:t=mez voce	!	!LO:TX:b:t=mez voce	!	!	!	!	!
4r	.	p	4r	.	16ffnLL\	.	16aaLL\	.	1ryy	1ryy	1ryy	1ryy
.	.	.	.	.	16ffn\	.	16aa\	.	.	.	.	.
.	.	.	.	.	16ffn\	.	16aa\	.	.	.	.	.
.	.	.	.	.	16ffn\	.	16aa\	.	.	.	.	.
4D/	.	.	4d\	.	16ffn\	.	16aa\	.	.	.	.	.
.	.	.	.	.	16ffn\	.	16aa\	.	.	.	.	.
.	.	.	.	.	16ffn\	.	16aa\	.	.	.	.	.
.	.	.	.	.	16ffn\	.	16aa\	.	.	.	.	.
!	!	!	!LO:TX:b:t=mez vo&colon;	!	!	!	!	!	!	!	!	!
4Fn\	.	.	4fn\	.	16ffn\	.	16aa\	.	.	.	.	.
.	.	.	.	.	16ffn\	.	16aa\	.	.	.	.	.
.	.	.	.	.	16ffn\	.	16aa\	.	.	.	.	.
.	.	.	.	.	16ffn\	.	16aa\	.	.	.	.	.
4D/	.	.	4d\	.	16ffn\	.	16aa\	.	.	.	.	.
.	.	.	.	.	16ffn\	.	16aa\	.	.	.	.	.
.	.	.	.	.	16ffn\	.	16aa\	.	.	.	.	.
.	.	.	.	.	16ffnJJ\	.	16aaJJ\	.	.	.	.	.
=92	=92	=92	=92	=92	=92	=92	=92	=92	=92	=92	=92	=92
!LO:LB:g=original	!	!	!	!	!LO:SIC:v:s=16ffn\LL	!	!	!	!	!	!	!
4A\	.	.	4a\	.	16ff#\LL	.	16aa\LL	.	1ryy	1ryy	1ryy	1ryy
!	!	!	!	!	!LO:SIC:v:s=16ff\	!	!	!	!	!	!	!
.	.	.	.	.	16ff#\	.	16aa\	.	.	.	.	.
!	!	!	!	!	!LO:SIC:v:s=16ff\	!	!	!	!	!	!	!
.	.	.	.	.	16ff#\	.	16aa\	.	.	.	.	.
!	!	!	!	!	!LO:SIC:v:s=16ff\	!	!	!	!	!	!	!
.	.	.	.	.	16ff#\	.	16aa\	.	.	.	.	.
!	!	!	!	!	!LO:SIC:v:s=16ff\	!	!	!	!	!	!	!
4AA/	.	.	4A/	.	16ff#\	.	16aa\	.	.	.	.	.
!	!	!	!	!	!LO:SIC:v:s=16ff\	!	!	!	!	!	!	!
.	.	.	.	.	16ff#\	.	16aa\	.	.	.	.	.
!	!	!	!	!	!LO:SIC:v:s=16ff\	!	!	!	!	!	!	!
.	.	.	.	.	16ff#\	.	16aa\	.	.	.	.	.
!	!	!	!	!	!LO:SIC:v:s=16ff\JJ	!	!	!	!	!	!	!
.	.	.	.	.	16ff#\JJ	.	16aa\JJ	.	.	.	.	.
4C#/	.	.	4c#/	.	16ee\LL	.	16gg\LL	.	.	.	.	.
.	.	.	.	.	16ee\	.	16gg\	.	.	.	.	.
.	.	.	.	.	16ee\	.	16gg\	.	.	.	.	.
.	.	.	.	.	16ee\	.	16gg\	.	.	.	.	.
4AA/	.	.	4A/	.	16ee\	.	16gg\	.	.	.	.	.
.	.	.	.	.	16ee\	.	16gg\	.	.	.	.	.
.	.	.	.	.	16ee\	.	16gg\	.	.	.	.	.
.	.	.	.	.	16ee\JJ	.	16gg\JJ	.	.	.	.	.
=93	=93	=93	=93	=93	=93	=93	=93	=93	=93	=93	=93	=93
4r	.	.	4r	.	16ddLL	.	16ffnLL\	.	1ryy	1ryy	1ryy	1ryy
.	.	.	.	.	16dd	.	16ffn\	.	.	.	.	.
.	.	.	.	.	16dd	.	16ffn\	.	.	.	.	.
.	.	.	.	.	16dd	.	16ffn\	.	.	.	.	.
4B-X\	.	.	4b-X\	.	16dd	.	16ffn\	.	.	.	.	.
.	.	.	.	.	16dd	.	16ffn\	.	.	.	.	.
.	.	.	.	.	16dd	.	16ffn\	.	.	.	.	.
.	.	.	.	.	16dd	.	16ffn\	.	.	.	.	.
4d\	.	.	4dd\	.	16dd	.	16ffn\	.	.	.	.	.
.	.	.	.	.	16dd	.	16ffn\	.	.	.	.	.
.	.	.	.	.	16dd	.	16ffn\	.	.	.	.	.
.	.	.	.	.	16dd	.	16ffn\	.	.	.	.	.
4B-\	.	.	4b-\	.	16dd	.	16ffn\	.	.	.	.	.
.	.	.	.	.	16dd	.	16ffn\	.	.	.	.	.
.	.	.	.	.	16dd	.	16ffn\	.	.	.	.	.
.	.	.	.	.	16ddJJ	.	16ffnJJ\	.	.	.	.	.
=94	=94	=94	=94	=94	=94	=94	=94	=94	=94	=94	=94	=94
!	!	!	!	!	!	!	!LO:SIC:v:s=16ffn\LL	!	!	!	!	!
4fn\	.	.	4fn\	.	16dd\LL	.	16ff#\LL	.	1ryy	1ryy	1ryy	1ryy
!	!	!	!	!	!	!	!LO:SIC:v:s=16ff\	!	!	!	!	!
.	.	.	.	.	16dd\	.	16ff#\	.	.	.	.	.
!	!	!	!	!	!	!	!LO:SIC:v:s=16ff\	!	!	!	!	!
.	.	.	.	.	16dd\	.	16ff#\	.	.	.	.	.
!	!	!	!	!	!	!	!LO:SIC:v:s=16ff\	!	!	!	!	!
.	.	.	.	.	16dd\	.	16ff#\	.	.	.	.	.
!	!	!	!	!	!	!	!LO:SIC:v:s=16ff\	!	!	!	!	!
4Fny/	.	.	4f\	.	16dd\	.	16ff#\	.	.	.	.	.
!	!	!	!	!	!	!	!LO:SIC:v:s=16ff\	!	!	!	!	!
.	.	.	.	.	16dd\	.	16ff#\	.	.	.	.	.
!	!	!	!	!	!	!	!LO:SIC:v:s=16ff\	!	!	!	!	!
.	.	.	.	.	16dd\	.	16ff#\	.	.	.	.	.
!	!	!	!	!	!	!	!LO:SIC:v:s=16ff\JJ	!	!	!	!	!
.	.	.	.	.	16dd\JJ	.	16ff#\JJ	.	.	.	.	.
4A\	.	.	4a\	.	16ccn\LL	.	16ee-X\LL	.	.	.	.	.
.	.	.	.	.	16ccn\	.	16ee-X\	.	.	.	.	.
.	.	.	.	.	16ccn\	.	16ee-X\	.	.	.	.	.
.	.	.	.	.	16ccn\	.	16ee-X\	.	.	.	.	.
4Fny\	.	.	4f\	.	16ccn\	.	16ee-X\	.	.	.	.	.
.	.	.	.	.	16ccn\	.	16ee-X\	.	.	.	.	.
.	.	.	.	.	16ccn\	.	16ee-X\	.	.	.	.	.
.	.	.	.	.	16ccn\JJ	.	16ee-X\JJ	.	.	.	.	.
=95	=95	=95	=95	=95	=95	=95	=95	=95	=95	=95	=95	=95
!	!	!	!	!	!	!	!LO:LB:g=original	!	!	!	!	!
4r	.	.	4r	.	16b-XLL	.	16ddLL\	.	1ryy	1ryy	1ryy	1ryy
.	.	.	.	.	16b-X	.	16dd\	.	.	.	.	.
.	.	.	.	.	16b-X	.	16dd\	.	.	.	.	.
.	.	.	.	.	16b-X	.	16dd\	.	.	.	.	.
4G\	.	.	4g\	.	16b-X	.	16dd\	.	.	.	.	.
.	.	.	.	.	16b-X	.	16dd\	.	.	.	.	.
.	.	.	.	.	16b-X	.	16dd\	.	.	.	.	.
.	.	.	.	.	16b-X	.	16dd\	.	.	.	.	.
4B-X\	.	.	4b-X\	.	16b-X	.	16dd\	.	.	.	.	.
.	.	.	.	.	16b-X	.	16dd\	.	.	.	.	.
.	.	.	.	.	16b-X	.	16dd\	.	.	.	.	.
.	.	.	.	.	16b-X	.	16dd\	.	.	.	.	.
4G\	.	.	4g\	.	16b-X	.	16dd\	.	.	.	.	.
.	.	.	.	.	16b-X	.	16dd\	.	.	.	.	.
.	.	.	.	.	16b-X	.	16dd\	.	.	.	.	.
.	.	.	.	.	16b-XJJ	.	16ddJJ\	.	.	.	.	.
=96	=96	=96	=96	=96	=96	=96	=96	=96	=96	=96	=96	=96
!	!	!	!LO:LB:g=original	!	!LO:SIC:v:s=16b-/LL	!	!	!	!	!	!	!
4d\	.	.	4dd\	.	16b/LL	.	16dd\LL	.	1ryy	1ryy	1ryy	1ryy
!	!	!	!	!	!LO:SIC:v:s=16b-/	!	!	!	!	!	!	!
.	.	.	.	.	16b/	.	16dd\	.	.	.	.	.
!	!	!	!	!	!LO:SIC:v:s=16b-/	!	!	!	!	!	!	!
.	.	.	.	.	16b/	.	16dd\	.	.	.	.	.
!	!	!	!	!	!LO:SIC:v:s=16b-/	!	!	!	!	!	!	!
.	.	.	.	.	16b/	.	16dd\	.	.	.	.	.
!	!	!	!	!	!LO:SIC:v:s=16b-/	!	!	!	!	!	!	!
4D/	.	.	4d\	.	16b/	.	16dd\	.	.	.	.	.
!	!	!	!	!	!LO:SIC:v:s=16b-/	!	!	!	!	!	!	!
.	.	.	.	.	16b/	.	16dd\	.	.	.	.	.
!	!	!	!	!	!LO:SIC:v:s=16b-/	!	!	!	!	!	!	!
.	.	.	.	.	16b/	.	16dd\	.	.	.	.	.
!	!	!	!	!	!LO:SIC:v:s=16b-/JJ	!	!	!	!	!	!	!
.	.	.	.	.	16b/JJ	.	16dd\JJ	.	.	.	.	.
!LO:SIC:v:s=4F#\:t=?	!	!	!LO:SIC:v:s=4f#\:t=?	!	!	!	!	!	!	!	!	!
4Fn\	.	.	4fn\	.	16a/LL	.	16ccn\LL	.	.	.	.	.
.	.	.	.	.	16a/	.	16ccn\	.	.	.	.	.
.	.	.	.	.	16a/	.	16ccn\	.	.	.	.	.
.	.	.	.	.	16a/	.	16ccn\	.	.	.	.	.
4D\	.	.	4d\	.	16a/	.	16ccn\	.	.	.	.	.
.	.	.	.	.	16a/	.	16ccn\	.	.	.	.	.
.	.	.	.	.	16a/	.	16ccn\	.	.	.	.	.
.	.	.	.	.	16a/JJ	.	16ccn\JJ	.	.	.	.	.
=97	=97	=97	=97	=97	=97	=97	=97	=97	=97	=97	=97	=97
4r	.	.	4r	.	16g#XLL\	.	16bnLL\	.	1ryy	1ryy	1ryy	1ryy
.	.	.	.	.	16g#X\	.	16bn\	.	.	.	.	.
.	.	.	.	.	16g#X\	.	16bn\	.	.	.	.	.
.	.	.	.	.	16g#X\	.	16bn\	.	.	.	.	.
4E\	.	.	4e\	.	16g#X\	.	16bn\	.	.	.	.	.
.	.	.	.	.	16g#X\	.	16bn\	.	.	.	.	.
.	.	.	.	.	16g#X\	.	16bn\	.	.	.	.	.
.	.	.	.	.	16g#X\	.	16bn\	.	.	.	.	.
4G#X\	.	.	4g#X\	.	16g#X\	.	16bn\	.	.	.	.	.
.	.	.	.	.	16g#X\	.	16bn\	.	.	.	.	.
.	.	.	.	.	16g#X\	.	16bn\	.	.	.	.	.
.	.	.	.	.	16g#X\	.	16bn\	.	.	.	.	.
4E\	.	.	4e\	.	16g#X\	.	16bn\	.	.	.	.	.
.	.	.	.	.	16g#X\	.	16bn\	.	.	.	.	.
.	.	.	.	.	16g#X\	.	16bn\	.	.	.	.	.
.	.	.	.	.	16g#XJJ\	.	16bnJJ\	.	.	.	.	.
=98	=98	=98	=98	=98	=98	=98	=98	=98	=98	=98	=98	=98
*tremolo	*	*	*tremolo	*	*	*	*	*	*	*	*	*
!LO:LB:g=original	!	!LO:HP:b:t=cres	!	!LO:HP:b:t=cres	!	!LO:HP:b:t=cres	!	!LO:HP:b:t=Cres:rj	!	!	!	!
8AL\	.	<	8aL\	<	16a/LL	<	16cc#X\LL	<	1ryy	1ryy	1ryy	1ryy
.	.	.	.	.	16a/	.	16cc#X\	.	.	.	.	.
8A\	.	.	8a\	.	16a/	.	16cc#X\	.	.	.	.	.
.	.	.	.	.	16a/	.	16cc#X\	.	.	.	.	.
8A\	.	.	8a\	.	16a/	.	16cc#X\	.	.	.	.	.
.	.	.	.	.	16a/	.	16cc#X\	.	.	.	.	.
8A\	.	.	8a\	.	16a/	.	16cc#X\	.	.	.	.	.
.	.	.	.	.	16a/JJ	.	16cc#X\JJ	.	.	.	.	.
8A\	.	.	8a\	.	16b/LL	.	16dd\LL	.	.	.	.	.
.	.	.	.	.	16b/	.	16dd\	.	.	.	.	.
8A\	.	.	8a\	.	16b/	.	16dd\	.	.	.	.	.
.	.	.	.	.	16b/	.	16dd\	.	.	.	.	.
8A\	.	.	8a\	.	16b/	.	16dd\	.	.	.	.	.
.	.	.	.	.	16b/	.	16dd\	.	.	.	.	.
8AJ\	.	.	8aJ\	.	16b/	.	16dd\	.	.	.	.	.
.	.	.	.	.	16b/JJ	.	16dd\JJ	.	.	.	.	.
=99	=99	=99	=99	=99	=99	=99	=99	=99	=99	=99	=99	=99
!	!	!	!	!	!LO:LB:g=original	!	!	!	!	!	!	!
8AL\	.	.	8aL\	.	16cc#\LL	.	16ee\LL	.	1ryy	1ryy	1ryy	1ryy
.	.	.	.	.	16cc#\	.	16ee\	.	.	.	.	.
8A\	.	.	8a\	.	16cc#\	.	16ee\	.	.	.	.	.
.	.	.	.	.	16cc#\	.	16ee\	.	.	.	.	.
8A\	.	.	8a\	.	16cc#\	.	16ee\	.	.	.	.	.
.	.	.	.	.	16cc#\	.	16ee\	.	.	.	.	.
8A\	.	.	8a\	.	16cc#\	.	16ee\	.	.	.	.	.
.	.	.	.	.	16cc#\JJ	.	16ee\JJ	.	.	.	.	.
8A\	.	.	8a\	.	16dd\LL	.	16ff#\LL	.	.	.	.	.
.	.	.	.	.	16dd\	.	16ff#\	.	.	.	.	.
8A\	.	.	8a\	.	16dd\	.	16ff#\	.	.	.	.	.
.	.	.	.	.	16dd\	.	16ff#\	.	.	.	.	.
8A\	.	.	8a\	.	16dd\	.	16ff#\	.	.	.	.	.
.	.	.	.	.	16dd\	.	16ff#\	.	.	.	.	.
8AJ\	.	.	8aJ\	.	16dd\	.	16ff#\	.	.	.	.	.
.	.	.	.	.	16dd\JJ	.	16ff#\JJ	.	.	.	.	.
=100	=100	=100	=100	=100	=100	=100	=100	=100	=100	=100	=100	=100
!	!	!LO:DY:t=for	!	!LO:DY:t=for	!	!	!	!	!	!	!	!
8AL\	.	f	8aL\	f	16ee\LL	.	16gg\LL	.	1ryy	1ryy	1ryy	1ryy
.	.	.	.	.	16ee\	.	16gg\	.	.	.	.	.
8A\	.	.	8a\	.	16ee\	.	16gg\	.	.	.	.	.
.	.	.	.	.	16ee\	.	16gg\	.	.	.	.	.
!	!	!	!	!	!	!LO:DY:t=po\nfor	!	!	!	!	!	!
8A\	.	.	8a\	.	16ee\	fp	16gg\	.	.	.	.	.
.	.	.	.	.	16ee\	.	16gg\	.	.	.	.	.
8A\	.	.	8a\	.	16ee\	.	16gg\	.	.	.	.	.
.	.	.	.	.	16ee\JJ	.	16gg\JJ	.	.	.	.	.
8A\	.	.	8a\	.	16ff#\LL	.	16aa\LL	.	.	.	.	.
.	.	.	.	.	16ff#\	.	16aa\	.	.	.	.	.
8A\	.	.	8a\	.	16ff#\	.	16aa\	.	.	.	.	.
.	.	.	.	.	16ff#\	.	16aa\	.	.	.	.	.
8A\	.	.	8a\	.	16ff#\	.	16aa\	.	.	.	.	.
.	.	.	.	.	16ff#\	.	16aa\	.	.	.	.	.
8AJ\	.	.	8aJ\	.	16ff#\	.	16aa\	.	.	.	.	.
.	.	.	.	.	16ff#\JJ	.	16aa\JJ	.	.	.	.	.
=101	=101	=101	=101	=101	=101	=101	=101	=101	=101	=101	=101	=101
8AL\	.	.	8aL\	.	16gg\LL	.	16bb\LL	.	1ryy	1ryy	1ryy	1ryy
.	.	.	.	.	16gg\	.	16bb\	.	.	.	.	.
8A\	.	.	8a\	.	16gg\	.	16bb\	.	.	.	.	.
.	.	.	.	.	16gg\	.	16bb\	.	.	.	.	.
8A\	.	.	8a\	.	16gg\	.	16bb\	.	.	.	.	.
.	.	.	.	.	16gg\	.	16bb\	.	.	.	.	.
8A\	.	.	8a\	.	16gg\	.	16bb\	.	.	.	.	.
.	.	.	.	.	16gg\JJ	.	16bb\JJ	.	.	.	.	.
8A\	.	.	8a\	.	16ee\LL	.	16ccc#\LL	.	.	.	.	.
.	.	.	.	.	16ee\	.	16ccc#\	.	.	.	.	.
8A\	.	.	8a\	.	16ee\	.	16ccc#\	.	.	.	.	.
.	.	.	.	.	16ee\	.	16ccc#\	.	.	.	.	.
8A\	.	.	8a\	.	16ee\	.	16ccc#\	.	.	.	.	.
.	.	.	.	.	16ee\	.	16ccc#\	.	.	.	.	.
8AJ\	.	.	8aJ\	.	16ee\	.	16ccc#\	.	.	.	.	.
.	.	.	.	.	16ee\JJ	.	16ccc#\JJ	.	.	.	.	.
*Xtremolo	*	*	*Xtremolo	*	*Xtremolo	*	*Xtremolo	*	*	*	*	*
=102	=102	=102	=102	=102	=102	=102	=102	=102	=102	=102	=102	=102
4B\	.	.	4b\	.	4ff#\	.	4ddd\	.	1ryy	1ryy	1ryy	1ryy
4r	.	.	4r	.	4r	.	4r	.	.	.	.	.
2r	.	.	2r	.	4r	.	4r	.	.	.	.	.
.	.	.	.	.	8ee\|>	p	8gg#X\|	.	.	.	.	.
.	.	.	.	.	8r	.	8r	.	.	.	.	.
=103	=103	=103	=103	=103	=103	=103	=103	=103	=103	=103	=103	=103
*tremolo	*	*	*tremolo	*	*	*	*	*	*	*	*	*
!	!	!LO:DY:t=po:rj	!	!LO:DY:rj:t=po	!	!	!	!	!	!	!	!
8DL\	.	p	8dL\	p	(4ff#\	fp	(4aa\	fp	1ryy	1ryy	1ryy	1ryy
8D\	.	.	8d\	.	.	.	.	.	.	.	.	.
8D\	.	.	8d\	.	4gg\)	.	4bb\)	.	.	.	.	.
8D\	.	.	8d\	.	.	.	.	.	.	.	.	.
8D\	.	.	8d\	.	8ee\|>	.	8ggn\|	.	.	.	.	.
8D\	.	.	8d\	.	8r	.	8r	.	.	.	.	.
8D\	.	.	8d\	.	8cc#\|>	.	8ee\|	.	.	.	.	.
8DJ\	.	.	8dJ\	.	8r	.	8r	.	.	.	.	.
=104	=104	=104	=104	=104	=104	=104	=104	=104	=104	=104	=104	=104
!	!	!	!	!	!	!	!LO:LB:g=original	!	!	!	!	!
8DL\	.	.	8dL\	.	(4dd\	fp	(4ff#\	fp	1ryy	1ryy	1ryy	1ryy
8D\	.	.	8d\	.	.	.	.	.	.	.	.	.
8D\	.	.	8d\	.	4ee\)	.	4gg\)	.	.	.	.	.
8D\	.	.	8d\	.	.	.	.	.	.	.	.	.
8D\	.	.	8d\	.	8g/|>	.	8ee\|	.	.	.	.	.
8D\	.	.	8d\	.	8r	.	8r	.	.	.	.	.
8D\	.	.	8d\	.	8e/|>	.	8cc#\|	.	.	.	.	.
8DJ\	.	.	8dJ\	.	8r	.	8r	.	.	.	.	.
=105	=105	=105	=105	=105	=105	=105	=105	=105	=105	=105	=105	=105
!	!	!	!LO:LB:g=original	!	!	!	!	!	!	!	!	!
8DL\	.	.	8dL\	.	4f#/	.	4dd\	.	1ryy	1ryy	1ryy	1ryy
8D\	.	.	8d\	.	.	.	.	.	.	.	.	.
8D\	.	.	8d\	.	4r	.	4r	.	.	.	.	.
8D\	.	.	8d\	.	.	.	.	.	.	.	.	.
8D\	.	.	8d\	.	4r	.	4r	.	.	.	.	.
8D\	.	.	8d\	.	.	.	.	.	.	.	.	.
8D\	.	.	8d\	.	8e/	.	8g#X/|>	.	.	.	.	.
8DJ\	.	.	8dJ\	.	8r	.	8r	.	.	.	.	.
=106	=106	=106	=106	=106	=106	=106	=106	=106	=106	=106	=106	=106
!	!	!	!	!	!	!	!	!LO:DY:rj	!	!	!	!
8DL\	.	.	8dL\	.	(4f#/	fp	(4a/	fp	1ryy	1ryy	1ryy	1ryy
8D\	.	.	8d\	.	.	.	.	.	.	.	.	.
8D\	.	.	8d\	.	4g/)	.	4b/)	.	.	.	.	.
8D\	.	.	8d\	.	.	.	.	.	.	.	.	.
!	!	!	!	!	!LO:LB:g=original	!	!	!	!	!	!	!
8D\	.	.	8d\	.	8e/|>	.	8gn/|>	.	.	.	.	.
8D\	.	.	8d\	.	8r	.	8r	.	.	.	.	.
8D\	.	.	8d\	.	8c#/|>	.	8e|<|>/	.	.	.	.	.
8DJ\	.	.	8dJ\	.	8r	.	8r	.	.	.	.	.
=107	=107	=107	=107	=107	=107	=107	=107	=107	=107	=107	=107	=107
!	!	!	!	!	!	!	!	!LO:DY:rj	!	!	!	!
8DL\	.	.	8dL\	.	(4d/	fp	(4f#/	fp	1ryy	1ryy	1ryy	1ryy
8D\	.	.	8d\	.	.	.	.	.	.	.	.	.
8D\	.	.	8d\	.	4e/)	.	4g/)	.	.	.	.	.
8D\	.	.	8d\	.	.	.	.	.	.	.	.	.
8D\	.	.	8d\	.	8g/|>	.	8e/|>	.	.	.	.	.
8D\	.	.	8d\	.	8r	.	8r	.	.	.	.	.
8D\	.	.	8d\	.	8e/|>	.	8c#/|>	.	.	.	.	.
8DJ\	.	.	8dJ\	.	8r	.	8r	.	.	.	.	.
=108	=108	=108	=108	=108	=108	=108	=108	=108	=108	=108	=108	=108
*	*	*	*	*	*tremolo	*	*	*	*	*	*	*
!	!	!LO:DY:t=for.	!	!LO:DY:t=for	!	!LO:DY:rj	!	!LO:DY:rj	!	!	!	!
8DL\	.	f	8dL\	f	16A/LL	f	2d/	f	1ryy	1ryy	1ryy	1ryy
.	.	.	.	.	16f#/	.	.	.	.	.	.	.
8D\	.	.	8d\	.	16A/	.	.	.	.	.	.	.
.	.	.	.	.	16f#/	.	.	.	.	.	.	.
8D\	.	.	8d\	.	16A/	.	.	.	.	.	.	.
.	.	.	.	.	16f#/	.	.	.	.	.	.	.
8D\	.	.	8d\	.	16A/	.	.	.	.	.	.	.
.	.	.	.	.	16f#/JJ	.	.	.	.	.	.	.
8D\	.	.	8d\	.	16A/LL	.	4f#/|>	.	.	.	.	.
.	.	.	.	.	16f#/	.	.	.	.	.	.	.
8D\	.	.	8d\	.	16A/	.	.	.	.	.	.	.
.	.	.	.	.	16f#/	.	.	.	.	.	.	.
8D\	.	.	8d\	.	16A/	.	4a/|>	.	.	.	.	.
.	.	.	.	.	16f#/	.	.	.	.	.	.	.
8DJ\	.	.	8dJ\	.	16A/	.	.	.	.	.	.	.
.	.	.	.	.	16f#/JJ	.	.	.	.	.	.	.
=109	=109	=109	=109	=109	=109	=109	=109	=109	=109	=109	=109	=109
8DL\	.	.	8dL\	.	16A/LL	.	[4dd\	.	1ryy	1ryy	1ryy	1ryy
.	.	.	.	.	16f#/	.	.	.	.	.	.	.
8D\	.	.	8d\	.	16A/	.	.	.	.	.	.	.
.	.	.	.	.	16f#/	.	.	.	.	.	.	.
8D\	.	.	8d\	.	16A/	.	16dd\LL]	.	.	.	.	.
.	.	.	.	.	16f#/	.	16ee\	.	.	.	.	.
8D\	.	.	8d\	.	16A/	.	16ff#\	.	.	.	.	.
.	.	.	.	.	16f#/JJ	.	16ee\JJ	.	.	.	.	.
8D\	.	.	8d\	.	16A/LL	.	4dd\	.	.	.	.	.
.	.	.	.	.	16f#/	.	.	.	.	.	.	.
8D\	.	.	8d\	.	16A/	.	.	.	.	.	.	.
.	.	.	.	.	16f#/	.	.	.	.	.	.	.
8D\	.	.	8d\	.	16A/	.	4r	.	.	.	.	.
.	.	.	.	.	16f#/	.	.	.	.	.	.	.
8DJ\	.	.	8dJ\	.	16A/	.	.	.	.	.	.	.
.	.	.	.	.	16f#/JJ	.	.	.	.	.	.	.
=110	=110	=110	=110	=110	=110	=110	=110	=110	=110	=110	=110	=110
!	!	!	!	!	!	!	!LO:PB:g=original	!	!	!	!	!
8DL\	.	.	8BL\	.	16B/LL	.	2e/	.	1ryy	1ryy	1ryy	1ryy
.	.	.	.	.	16g/	.	.	.	.	.	.	.
8D\	.	.	8B\	.	16B/	.	.	.	.	.	.	.
.	.	.	.	.	16g/	.	.	.	.	.	.	.
8D\	.	.	8B\	.	16B/	.	.	.	.	.	.	.
.	.	.	.	.	16g/	.	.	.	.	.	.	.
8D\	.	.	8B\	.	16B/	.	.	.	.	.	.	.
.	.	.	.	.	16g/JJ	.	.	.	.	.	.	.
8D\	.	.	8B\	.	16B/LL	.	4g/|>	.	.	.	.	.
.	.	.	.	.	16g/	.	.	.	.	.	.	.
8D\	.	.	8B\	.	16B/	.	.	.	.	.	.	.
.	.	.	.	.	16g/	.	.	.	.	.	.	.
8D\	.	.	8B\	.	16B/	.	4b/|>	.	.	.	.	.
.	.	.	.	.	16g/	.	.	.	.	.	.	.
8DJ\	.	.	8BJ\	.	16B/	.	.	.	.	.	.	.
.	.	.	.	.	16g/JJ	.	.	.	.	.	.	.
=111	=111	=111	=111	=111	=111	=111	=111	=111	=111	=111	=111	=111
!	!	!	!	!	!LO:TX:t=P:problem=mixed beam	!	!	!	!	!	!	!
8DL\	.	.	8BL\	.	16B/LL	.	[4ee\	.	1ryy	1ryy	1ryy	1ryy
.	.	.	.	.	16g\	.	.	.	.	.	.	.
8D\	.	.	8B\	.	16B/	.	.	.	.	.	.	.
.	.	.	.	.	16g\	.	.	.	.	.	.	.
8D\	.	.	8B\	.	16B/	.	16ee\LL]	.	.	.	.	.
.	.	.	.	.	16g\	.	16ff#\	.	.	.	.	.
8D\	.	.	8B\	.	16B/	.	16gg\	.	.	.	.	.
.	.	.	.	.	16g\JJ	.	16ff#\JJ	.	.	.	.	.
!	!	!	!	!	!LO:TX:t=P:problem=mixed beam	!	!	!	!	!	!	!
8D\	.	.	8B\	.	16B/LL	.	4ee\	.	.	.	.	.
.	.	.	.	.	16g\	.	.	.	.	.	.	.
8D\	.	.	8B\	.	16B/	.	.	.	.	.	.	.
.	.	.	.	.	16g\	.	.	.	.	.	.	.
8D\	.	.	8B\	.	16B/	.	4r	.	.	.	.	.
.	.	.	.	.	16g\	.	.	.	.	.	.	.
8DJ\	.	.	8BJ\	.	16B/	.	.	.	.	.	.	.
.	.	.	.	.	16g\JJ	.	.	.	.	.	.	.
*Xtremolo	*	*	*	*	*Xtremolo	*	*	*	*	*	*	*
=112	=112	=112	=112	=112	=112	=112	=112	=112	=112	=112	=112	=112
*	*	*	*	*	*	*	*^	*	*	*	*	*
!	!	!	!	!	!LO:TX:t=P:problem=ucięty początek taktu	!	!	!	!	!	!	!	!
!LO:LB:g=original	!	!	!	!LO:DY:rj	!LO:LB:g=original	!	!	!	!	!	!	!	!
2C#/	.	.	8AL\	p	2ryy	.	2gg\|	2a\	.	1ryy	1ryy	1ryy	1ryy
.	.	.	8A\	.	.	.	.	.	p	.	.	.	.
.	.	.	8A\	.	.	.	.	.	.	.	.	.	.
.	.	.	8A\	.	.	.	.	.	.	.	.	.	.
!	!	!	!	!	!	!LO:DY:rj	!	!	!	!	!	!	!
2r	.	.	8A\	.	8cc#\|>	p	8ee\|	2ryy	.	.	.	.	.
.	.	.	8A\	.	8r	.	8r	.	.	.	.	.	.
.	.	.	8A\	.	8b\|>	.	8dd\|	.	.	.	.	.	.
.	.	.	8AJ\	.	8r	.	8r	.	.	.	.	.	.
*	*	*	*	*	*	*	*v	*v	*	*	*	*	*
=113	=113	=113	=113	=113	=113	=113	=113	=113	=113	=113	=113	=113
!LO:TX:a:t=2	!	!	!	!	!	!	!	!	!	!	!	!
0r	.	.	8AL\	.	8a/|>	.	8cc#\|	.	1ryy	1ryy	1ryy	1ryy
.	.	.	8A\	.	8r	.	8r	.	.	.	.	.
.	.	.	8A\	.	8g/|>	.	8b\|	.	.	.	.	.
.	.	.	8A\	.	8r	.	8r	.	.	.	.	.
.	.	.	8A\	.	8f#/|>	.	8a\|	.	.	.	.	.
.	.	.	8A\	.	8r	.	8r	.	.	.	.	.
.	.	.	8A\	.	8e/|>	.	8g/|>	.	.	.	.	.
.	.	.	8AJ\	.	8r	.	8r	.	.	.	.	.
=114	=114	=114	=114	=114	=114	=114	=114	=114	=114	=114	=114	=114
.	.	.	8AL\	.	4d/|>	.	4f#/|>	.	1ryy	1ryy	1ryy	1ryy
.	.	.	8A\	.	.	.	.	.	.	.	.	.
.	.	.	8A\	.	4r	.	4r	.	.	.	.	.
.	.	.	8A\	.	.	.	.	.	.	.	.	.
.	.	.	8A\	.	4c#/	.	4e/|>	.	.	.	.	.
.	.	.	8A\	.	.	.	.	.	.	.	.	.
.	.	.	8A\	.	4r	.	4r	.	.	.	.	.
.	.	.	8AJ\	.	.	.	.	.	.	.	.	.
*	*	*	*Xtremolo	*	*	*	*	*	*	*	*	*
=115	=115	=115	=115	=115	=115	=115	=115	=115	=115	=115	=115	=115
!	!	!LO:DY:rj	!	!LO:DY:rj	!	!LO:DY:rj	!	!LO:DY:rj	!	!	!	!
2D/	.	fp	2d\	fp	2d/	f	2d/	f	1ryy	1ryy	1ryy	1ryy
!	!	!	!	!	!	!LO:DY:rj	!	!LO:DY:rj	!	!	!	!
4F#/	.	.	4f#\	.	8a/|>	p	8a/|>	p	.	.	.	.
.	.	.	.	.	8r	.	8r	.	.	.	.	.
4r	.	.	4r	.	8f#/|>	.	8f#/|>	.	.	.	.	.
.	.	.	.	.	8r	.	8r	.	.	.	.	.
=116	=116	=116	=116	=116	=116	=116	=116	=116	=116	=116	=116	=116
!	!	!	!LO:LB:g=original	!	!	!	!	!	!	!	!	!
4G\	.	.	4g\	.	8b/|>	.	8b\|	.	1ryy	1ryy	1ryy	1ryy
.	.	.	.	.	8r	.	8r	.	.	.	.	.
4r	.	.	4r	.	8g/|>	.	8g\|	.	.	.	.	.
.	.	.	.	.	8r	.	8r	.	.	.	.	.
4A\	.	.	4a\	.	8cc#\|>	.	8cc#\|	.	.	.	.	.
.	.	.	.	.	8r	.	8r	.	.	.	.	.
4r	.	.	4r	.	8a/|>	.	8a/|>	.	.	.	.	.
.	.	.	.	.	8r	.	8r	.	.	.	.	.
=117	=117	=117	=117	=117	=117	=117	=117	=117	=117	=117	=117	=117
!	!	!	!	!	!	!LO:DY:rj	!LO:LB:g=original	!LO:DY:rj:t=for	!	!	!	!
4B\	.	fp	4b\	f	2d/ 2dd|>	f	2d/ 2dd	f	1ryy	1ryy	1ryy	1ryy
4r	.	.	4r	.	.	.	.	.	.	.	.	.
!	!	!	!	!	!	!LO:DY:rj	!	!LO:DY:rj	!	!	!	!
4F#\	.	.	4f#\	p	8a/|>	p	8a/|<	p	.	.	.	.
.	.	.	.	.	8r	.	8r	.	.	.	.	.
4r	.	.	4r	.	8f#/|>	.	8f#/|<	.	.	.	.	.
.	.	.	.	.	8r	.	8r	.	.	.	.	.
=118	=118	=118	=118	=118	=118	=118	=118	=118	=118	=118	=118	=118
4G\	.	.	4g\	.	8b/|>	.	8b\|	.	1ryy	1ryy	1ryy	1ryy
.	.	.	.	.	8r	.	8r	.	.	.	.	.
4r	.	.	4r	.	8g/|>	.	8g/|>	.	.	.	.	.
.	.	.	.	.	8r	.	8r	.	.	.	.	.
!	!	!	!	!	!LO:TX:t=P:problem=ucięta część taktu	!	!	!	!	!	!	!
!	!	!	!	!	!LO:LB:g=original	!	!	!	!	!	!	!
4A\	.	.	4a\	.	4ryy	.	8e/|>	.	.	.	.	.
.	.	.	.	.	.	.	8r	.	.	.	.	.
4r	.	.	4r	.	8ryy	.	8c#/|>	.	.	.	.	.
.	.	.	.	.	8r	.	8r	.	.	.	.	.
=119	=119	=119	=119	=119	=119	=119	=119	=119	=119	=119	=119	=119
!	!	!LO:DY:rj	!	!LO:DY:rj	!	!LO:DY:rj	!LO:N:vis=2.	!LO:DY:rj	!	!	!	!
2D/	.	f	2d\	f	2d/	f	2d/	f	1ryy	1ryy	1ryy	1ryy
!	!	!	!	!	!LO:TX:t=P:pp?:problem	!LO:DY:rj:t=p\np	!	!	!	!	!	!
2r	.	.	2r	.	4f#/	pp	8aa\|	p	.	.	.	.
.	.	.	.	.	.	.	8r	.	.	.	.	.
.	.	.	.	.	4r	.	8ff#\|	.	.	.	.	.
.	.	.	.	.	.	.	8r	.	.	.	.	.
=120	=120	=120	=120	=120	=120	=120	=120	=120	=120	=120	=120	=120
1r	.	.	1r	.	4g/	.	8bb\|	.	1ryy	1ryy	1ryy	1ryy
.	.	.	.	.	.	.	8r	.	.	.	.	.
.	.	.	.	.	4r	.	8gg\|	.	.	.	.	.
.	.	.	.	.	.	.	8r	.	.	.	.	.
.	.	.	.	.	4a/	.	8ccc#\|	.	.	.	.	.
.	.	.	.	.	.	.	8r	.	.	.	.	.
.	.	.	.	.	4r	.	8aa\|	.	.	.	.	.
.	.	.	.	.	.	.	8r	.	.	.	.	.
=121	=121	=121	=121	=121	=121	=121	=121	=121	=121	=121	=121	=121
*	*	*	*	*	*	*	*^	*	*	*	*	*
!	!	!	!	!	!	!LO:DY:rj	!	!	!LO:DY:t=for	!	!	!	!
2B\	.	.	2B/	.	2d/ 2b	f	2ddd\	2dd\	f	1ryy	1ryy	1ryy	1ryy
!	!	!	!	!	!	!LO:DY:rj	!	!	!LO:DY:rj	!	!	!	!
2r	.	.	2r	.	4f#/	p	8aa\|	2ryy	p	.	.	.	.
.	.	.	.	.	.	.	8r	.	.	.	.	.	.
.	.	.	.	.	4r	.	8ff#\|	.	.	.	.	.	.
.	.	.	.	.	.	.	8r	.	.	.	.	.	.
*	*	*	*	*	*	*	*v	*v	*	*	*	*	*
=122	=122	=122	=122	=122	=122	=122	=122	=122	=122	=122	=122	=122
!LO:LB:g=original	!	!	!	!	!	!	!	!	!	!	!	!
1r	.	.	1r	.	4g/	.	8bb\|	.	1ryy	1ryy	1ryy	1ryy
.	.	.	.	.	.	.	8r	.	.	.	.	.
.	.	.	.	.	4r	.	8gg\|	.	.	.	.	.
.	.	.	.	.	.	.	8r	.	.	.	.	.
.	.	.	.	.	4a/	.	8ee\|	.	.	.	.	.
.	.	.	.	.	.	.	8r	.	.	.	.	.
.	.	.	.	.	4r	.	8cc#\|	.	.	.	.	.
.	.	.	.	.	.	.	8r	.	.	.	.	.
=123	=123	=123	=123	=123	=123	=123	=123	=123	=123	=123	=123	=123
*	*	*	*^	*	*^	*	*^	*	*	*	*	*
!	!	!	!	!	!	!	!	!LO:DY:rj	!	!	!LO:DY:rj	!	!	!	!
2D/	.	.	2a/	2f#\	.	2dd/	2d/	f	2dd/	2d/	f	1ryy	1ryy	1ryy	1ryy
2r	.	.	2r	2ryy	.	8dd\|>	2ryy	.	8ff#\|	2ryy	p	.	.	.	.
.	.	.	.	.	.	8rc	.	.	8re	.	.	.	.	.	.
.	.	.	.	.	.	8ff#\|>	.	.	8aa\|	.	.	.	.	.	.
.	.	.	.	.	.	8re	.	.	8re	.	.	.	.	.	.
=124	=124	=124	=124	=124	=124	=124	=124	=124	=124	=124	=124	=124	=124	=124	=124
!	!	!	!	!	!	!	!	!LO:DY:rj	!	!	!LO:DY:rj	!	!	!	!
2D/	.	.	2a/	2f#\	.	2dd/	2d/	f	2dd/	2d/	f	1ryy	1ryy	1ryy	1ryy
!	!	!	!	!	!	!	!	!LO:DY:rj	!	!	!LO:DY:rj	!	!	!	!
2r	.	.	2r	2ryy	.	8dd\|>	2ryy	p	8ff#\|	2ryy	p	.	.	.	.
.	.	.	.	.	.	8re	.	.	8re	.	.	.	.	.	.
.	.	.	.	.	.	8ff#\|>	.	.	8aa\|	.	.	.	.	.	.
.	.	.	.	.	.	8re	.	.	8re	.	.	.	.	.	.
*	*	*	*v	*v	*	*	*	*	*v	*v	*	*	*	*	*
*	*	*	*	*	*v	*v	*	*	*	*	*	*	*
=125	=125	=125	=125	=125	=125	=125	=125	=125	=125	=125	=125	=125
*	*	*	*	*	*tremolo	*	*	*	*	*	*	*
!	!	!	!LO:LB:g=original	!	!	!	!LO:LB:g=original	!LO:DY:rj	!	!	!	!
8D\L	.	.	8d\L	.	16f#/LL	.	4d/ 4dd	f	1ryy	1ryy	1ryy	1ryy
.	.	.	.	.	16a/	.	.	.	.	.	.	.
8D\	.	.	8d\	.	16f#/	.	.	.	.	.	.	.
.	.	.	.	.	16a/	.	.	.	.	.	.	.
8D\	.	.	8d\	.	16f#/	.	4a/ 4ff#	.	.	.	.	.
.	.	.	.	.	16a/	.	.	.	.	.	.	.
8D\J	.	.	8d\J	.	16f#/	.	.	.	.	.	.	.
.	.	.	.	.	16a/JJ	.	.	.	.	.	.	.
*	*	*	*tremolo	*	*	*	*	*	*	*	*	*
8D\L	.	.	8d\L	.	16f#/LL	.	4a/ 4ff#	.	.	.	.	.
.	.	.	.	.	16a/	.	.	.	.	.	.	.
8D\	.	.	8d\	.	16f#/	.	.	.	.	.	.	.
.	.	.	.	.	16a/	.	.	.	.	.	.	.
8D\	.	.	8d\	.	16f#/	.	4a/ 4ff#	.	.	.	.	.
.	.	.	.	.	16a/	.	.	.	.	.	.	.
8D\J	.	.	8d\J	.	16f#/	.	.	.	.	.	.	.
.	.	.	.	.	16a/JJ	.	.	.	.	.	.	.
*	*	*	*	*	*Xtremolo	*	*	*	*	*	*	*
*	*	*	*Xtremolo	*	*	*	*	*	*	*	*	*
=126	=126	=126	=126	=126	=126	=126	=126	=126	=126	=126	=126	=126
!	!	!	!	!	!LO:TX:t=P:problem=ucięty początek taktu	!	!	!	!	!	!	!
4D\	.	.	4d\	.	4ryy	.	4d/ 4a 4ff#	.	1ryy	1ryy	1ryy	1ryy
4r	.	.	4r	.	4r	.	4r	.	.	.	.	.
2r	.	.	2r	.	2r	.	2r	.	.	.	.	.
!LO:TX:b:t=Volti Subito	!	!	!LO:TX:t=Volti Subito:b:i	!	!	!	!	!	!	!	!	!
==	==	==	==	==	==	==	==	==	==	==	==	==
*-	*-	*-	*-	*-	*-	*-	*-	*-	*-	*-	*-	*-
!!!system-decoration: [(g1)][(g2)][(g3)]s8
!!!RDF**kern: | = vertical stroke
!!!RDF**kern: > = above
!!!RDF**kern: < = below
!!!ENC: Marcin Jachim
!!!END: 2020-07-18
!!!ENC: Krzysztof Stępień
!!!END: 2022-03-08
!!!YEC: Copyright 2022 Narodowy Instytut Fryderyka Chopina (https://polishscores.org)
!!!YEM: License CC-BY-4.0 (https://creativecommons.org/licenses/by/4.0)
